projects/Assignment1/res/luts/cool.cube
#Created by: Adobe Photoshop Export Color Lookup Plugin
TITLE "Cooling"
#LUT size
LUT_3D_SIZE 8
#data domain
#LUT data points
DOMAIN_MIN 0.000000 0.000000 0.000000
DOMAIN_MAX 0.903226 0.903226 0.903226
0.000000 0.000000 0.000000
0.063019 0.027466 0.032562
0.143951 0.045868 0.065216
0.224365 0.062897 0.106476
0.304047 0.079498 0.151978
0.383850 0.096100 0.197083
0.463593 0.112732 0.242340
0.543335 0.129364 0.287842
0.056213 0.083374 0.091827
0.116943 0.111328 0.128021
0.204498 0.126068 0.161865
0.292694 0.138885 0.204620
0.377106 0.153656 0.246979
0.457611 0.170715 0.288055
0.537720 0.187592 0.330750
0.617889 0.204407 0.373871
0.092957 0.174927 0.192444
0.145142 0.207214 0.228882
0.234955 0.222290 0.254791
0.324036 0.236542 0.287384
0.414124 0.248840 0.327759
0.508972 0.257111 0.376495
0.608368 0.261749 0.432465
0.690247 0.278137 0.473083
0.128632 0.267273 0.291840
0.167725 0.305389 0.332642
0.260132 0.320099 0.353821
0.351807 0.334259 0.379730
0.440674 0.348785 0.411469
0.529877 0.362152 0.448364
0.620728 0.373718 0.490295
0.715576 0.382050 0.539001
0.164398 0.359589 0.391296
0.203369 0.397888 0.431396
0.278198 0.420410 0.458618
0.377777 0.431732 0.478180
0.468567 0.446228 0.504761
0.557526 0.460785 0.536011
0.646515 0.474609 0.571198
0.736237 0.487274 0.610291
0.200348 0.451843 0.490875
0.239227 0.490204 0.530701
0.280884 0.527130 0.570862
0.399963 0.530426 0.580444
0.495270 0.543427 0.602631
0.585663 0.558014 0.629913
0.674622 0.572601 0.660828
0.763367 0.586731 0.694824
0.236084 0.544098 0.590332
0.274933 0.582611 0.629913
0.314087 0.620697 0.670746
0.414917 0.631989 0.687012
0.518982 0.641571 0.703827
0.612427 0.655212 0.727539
0.702545 0.669922 0.755005
0.791473 0.684570 0.785583
0.271881 0.636383 0.689819
0.310730 0.674896 0.729187
0.349731 0.713165 0.769684
0.409607 0.742157 0.802612
0.538605 0.741241 0.807861
0.637054 0.753021 0.827820
0.729553 0.767029 0.852417
0.819550 0.781738 0.880188
0.000031 0.003479 0.110504
0.033417 0.035858 0.197418
0.098572 0.062225 0.230347
0.202393 0.071869 0.247162
0.291443 0.087433 0.273071
0.376709 0.104095 0.302826
0.460236 0.121124 0.335571
0.542694 0.138275 0.370789
0.052216 0.084503 0.225433
0.092346 0.121948 0.267059
0.156738 0.148041 0.303223
0.268921 0.152435 0.325836
0.365723 0.162842 0.357819
0.451294 0.179504 0.387085
0.534943 0.196594 0.419250
0.617584 0.213745 0.453674
0.094299 0.179688 0.292267
0.133789 0.217651 0.333038
0.187744 0.248596 0.371460
0.303314 0.252258 0.388550
0.401733 0.262115 0.419281
0.500580 0.269958 0.459534
0.603668 0.273956 0.509033
0.690826 0.288300 0.546204
0.133789 0.274261 0.369446
0.172943 0.312439 0.409760
0.212616 0.350006 0.452087
0.333008 0.352173 0.463715
0.431427 0.363098 0.489014
0.524841 0.375244 0.520660
0.618652 0.386169 0.558228
0.714905 0.394714 0.601807
0.171814 0.368225 0.453857
0.210754 0.406586 0.493744
0.250305 0.444336 0.535492
0.358490 0.452148 0.550385
0.460510 0.462067 0.570862
0.554291 0.474854 0.598358
0.645844 0.487976 0.630341
0.737457 0.500244 0.666412
0.209076 0.461700 0.543091
0.247986 0.500092 0.582703
0.287231 0.538086 0.623871
0.376190 0.554413 0.645782
0.487366 0.560730 0.660431
0.583252 0.573151 0.684448
0.675018 0.586761 0.712891
0.765839 0.600250 0.744965
0.245941 0.554749 0.635345
0.284821 0.593262 0.674866
0.323914 0.631409 0.715454
0.375183 0.663971 0.752625
0.510101 0.660400 0.755951
0.610107 0.671387 0.776215
0.703583 0.684692 0.801758
0.794586 0.698669 0.830597
0.282440 0.647675 0.729553
0.321289 0.686188 0.768890
0.360382 0.724396 0.809357
0.399658 0.762238 0.851013
0.526764 0.762207 0.856628
0.634674 0.770020 0.872284
0.730743 0.782532 0.894806
0.823059 0.796326 0.921173
0.000031 0.011993 0.193787
0.022491 0.039276 0.337921
0.064941 0.075012 0.382385
0.109192 0.109192 0.430237
0.242615 0.106506 0.432800
0.345032 0.116791 0.450195
0.437317 0.131104 0.473389
0.525452 0.146973 0.500061
0.042450 0.088013 0.362335
0.082520 0.125610 0.403229
0.124390 0.161774 0.446991
0.169800 0.195160 0.495911
0.312500 0.185730 0.509247
0.420044 0.192657 0.530945
0.512421 0.206940 0.554077
0.600647 0.222778 0.580414
0.089111 0.182159 0.422119
0.128571 0.220245 0.462280
0.169342 0.257141 0.505005
0.211609 0.292725 0.550629
0.346954 0.287537 0.561432
0.462280 0.289429 0.588470
0.572968 0.291321 0.628540
0.674408 0.298126 0.667267
0.131989 0.277283 0.487000
0.171082 0.315582 0.526794
0.210938 0.353210 0.568329
0.251831 0.389801 0.612366
0.378296 0.389160 0.623016
0.491211 0.393555 0.643188
0.593628 0.401520 0.672913
0.694611 0.408997 0.709747
0.172607 0.372467 0.557892
0.211639 0.410858 0.597626
0.251038 0.448792 0.638550
0.291199 0.485931 0.681549
0.405975 0.490692 0.695221
0.522217 0.494232 0.710785
0.623444 0.503693 0.736298
0.720490 0.514191 0.767120
0.211975 0.467194 0.634735
0.250885 0.505646 0.674164
0.290192 0.543640 0.714935
0.329926 0.581207 0.757111
0.426056 0.594177 0.777283
0.551453 0.594208 0.787262
0.653839 0.603577 0.809448
0.750092 0.615112 0.837036
0.250427 0.561432 0.716217
0.289337 0.599945 0.755646
0.328522 0.638092 0.796051
0.368011 0.675812 0.837799
0.430084 0.703613 0.871552
0.577515 0.694366 0.870667
0.683014 0.702789 0.889862
0.780243 0.714325 0.914734
0.288391 0.655273 0.801636
0.327209 0.693787 0.840881
0.366302 0.732056 0.881104
0.405670 0.769928 0.922394
0.445312 0.807465 0.965057
0.599091 0.795746 0.960419
0.710114 0.802002 0.975769
0.809174 0.813080 0.998230
0.000031 0.024261 0.257111
0.005371 0.046875 0.472870
0.047852 0.082733 0.516632
0.093353 0.116302 0.564301
0.142090 0.147461 0.616333
0.257385 0.151764 0.630524
0.385010 0.151428 0.636017
0.487305 0.161835 0.653473
0.028107 0.094025 0.498352
0.067871 0.131897 0.538574
0.109497 0.168304 0.581482
0.153534 0.202942 0.627655
0.201782 0.234375 0.679260
0.326599 0.231659 0.705597
0.460175 0.227539 0.715240
0.562561 0.237823 0.732513
0.080048 0.185364 0.558563
0.119385 0.223602 0.598419
0.159943 0.260742 0.640167
0.201965 0.296722 0.684357
0.246033 0.331177 0.731628
0.361084 0.334076 0.754089
0.506134 0.322601 0.772064
0.632141 0.316742 0.811768
0.126099 0.279755 0.619019
0.165131 0.318146 0.658478
0.205017 0.355835 0.699585
0.245880 0.392639 0.742462
0.287903 0.428497 0.787567
0.390656 0.437653 0.810120
0.534790 0.428284 0.819000
0.649536 0.430573 0.845856
0.169098 0.375061 0.682739
0.208160 0.413483 0.722229
0.247620 0.451416 0.762817
0.287811 0.488739 0.804932
0.328857 0.525269 0.848907
0.413940 0.542511 0.876373
0.566101 0.530457 0.878021
0.678680 0.534729 0.899750
0.210510 0.470337 0.750977
0.249451 0.508789 0.790283
0.288696 0.546936 0.830597
0.328522 0.584503 0.872314
0.368988 0.621521 0.915558
0.423096 0.652313 0.954651
0.596405 0.631561 0.945038
0.709930 0.636017 0.963470
0.250702 0.565369 0.823578
0.289581 0.603882 0.862823
0.328796 0.642059 0.903015
0.368317 0.679840 0.944244
0.408325 0.717224 0.986877
0.471161 0.748413 1.000000
0.630768 0.732910 1.000000
0.744263 0.740784 1.000000
0.290131 0.660034 0.900299
0.328979 0.698578 0.939514
0.368042 0.736908 0.979431
0.425079 0.769653 1.000000
0.500580 0.796936 1.000000
0.575897 0.824188 1.000000
0.701843 0.825745 1.000000
0.801605 0.840698 1.000000
0.000031 0.037170 0.316772
0.000031 0.061554 0.538055
0.026489 0.093323 0.647125
0.070221 0.128235 0.692352
0.117920 0.160309 0.742401
0.170227 0.188965 0.797913
0.219543 0.219543 0.851349
0.409454 0.192627 0.829498
0.012054 0.100983 0.633728
0.051605 0.139038 0.673584
0.092468 0.176117 0.715363
0.135284 0.211670 0.759735
0.180634 0.245331 0.807404
0.230682 0.275574 0.860626
0.287048 0.301208 0.921082
0.484528 0.268890 0.907928
0.068176 0.189880 0.695679
0.107452 0.228210 0.735291
0.147583 0.265717 0.776276
0.189056 0.302185 0.819305
0.232330 0.337341 0.864868
0.277954 0.370636 0.913605
0.327179 0.401306 0.966888
0.531769 0.363464 0.963837
0.117310 0.282898 0.755096
0.156372 0.321259 0.794464
0.196259 0.359039 0.835236
0.237030 0.396027 0.877472
0.278778 0.432220 0.921509
0.322021 0.467194 0.967773
0.371948 0.501404 1.000000
0.559265 0.471802 1.000000
0.162750 0.377563 0.815613
0.201813 0.416016 0.854980
0.241302 0.453979 0.895294
0.281494 0.491364 0.936920
0.322418 0.528137 0.980072
0.374481 0.563568 1.000000
0.435303 0.598297 1.000000
0.596985 0.581696 1.000000
0.206085 0.472778 0.878937
0.245026 0.511261 0.918182
0.284363 0.549377 0.958313
0.324188 0.587036 0.999542
0.385834 0.621246 1.000000
0.448212 0.655121 1.000000
0.510773 0.688934 1.000000
0.647064 0.685272 1.000000
0.247986 0.568085 0.945679
0.286865 0.606598 0.984833
0.341156 0.641754 1.000000
0.405396 0.674713 1.000000
0.470123 0.707428 1.000000
0.534973 0.740082 1.000000
0.599762 0.772705 1.000000
0.712006 0.781250 1.000000
0.300018 0.660461 1.000000
0.366455 0.692352 1.000000
0.433350 0.723938 1.000000
0.500641 0.755310 1.000000
0.568237 0.786591 1.000000
0.635773 0.817810 1.000000
0.703064 0.849243 1.000000
0.794983 0.868073 1.000000
0.000031 0.049835 0.377930
0.000031 0.076447 0.587463
0.006256 0.103088 0.778900
0.048157 0.139343 0.821960
0.092834 0.173615 0.868439
0.140717 0.205475 0.918732
0.194458 0.233185 0.975555
0.260620 0.260620 1.000000
0.000031 0.110321 0.745880
0.033905 0.147125 0.807617
0.074402 0.184448 0.848785
0.116302 0.220703 0.891846
0.159882 0.255768 0.937195
0.206299 0.288666 0.985992
0.264038 0.322296 1.000000
0.331482 0.353638 1.000000
0.054077 0.195740 0.831940
0.093353 0.234039 0.871460
0.133301 0.271729 0.912079
0.174438 0.308563 0.954346
0.217133 0.344177 0.998779
0.272858 0.381256 1.000000
0.330292 0.417664 1.000000
0.389893 0.452972 1.000000
0.106354 0.286987 0.892029
0.145477 0.325348 0.931396
0.185272 0.363220 0.971832
0.230072 0.400787 1.000000
0.284973 0.438538 1.000000
0.340790 0.475739 1.000000
0.397278 0.512604 1.000000
0.454681 0.549072 1.000000
0.154388 0.380524 0.951599
0.193451 0.418976 0.990906
0.244629 0.456848 1.000000
0.300171 0.494202 1.000000
0.356323 0.531281 1.000000
0.413025 0.568085 1.000000
0.470215 0.604614 1.000000
0.527405 0.641113 1.000000
0.205139 0.474731 1.000000
0.261627 0.511597 1.000000
0.318695 0.548248 1.000000
0.376251 0.584534 1.000000
0.434357 0.620636 1.000000
0.492615 0.656616 1.000000
0.551086 0.692474 1.000000
0.609436 0.728424 1.000000
0.282257 0.564575 1.000000
0.341400 0.600098 1.000000
0.400940 0.635406 1.000000
0.460938 0.670563 1.000000
0.521118 0.705536 1.000000
0.581482 0.740479 1.000000
0.641724 0.775421 1.000000
0.701721 0.810516 1.000000
0.368958 0.649506 1.000000
0.430908 0.683655 1.000000
0.493073 0.717621 1.000000
0.555511 0.751465 1.000000
0.618164 0.785217 1.000000
0.680725 0.819000 1.000000
0.743164 0.852905 1.000000
0.805115 0.886993 1.000000
0.000031 0.062225 0.440491
0.000031 0.090088 0.643188
0.000031 0.116791 0.851593
0.027313 0.149567 0.953064
0.070465 0.184937 0.997589
0.124939 0.222473 1.000000
0.182465 0.258820 1.000000
0.243317 0.293488 1.000000
0.000031 0.122803 0.807892
0.015778 0.155426 0.941437
0.055878 0.193115 0.982025
0.102966 0.231445 1.000000
0.155731 0.270233 1.000000
0.210022 0.308228 1.000000
0.265778 0.345490 1.000000
0.323761 0.381592 1.000000
0.038696 0.202301 0.967621
0.079742 0.241058 1.000000
0.130371 0.280914 1.000000
0.182129 0.320221 1.000000
0.234802 0.359009 1.000000
0.288391 0.397430 1.000000
0.343048 0.435242 1.000000
0.398682 0.472534 1.000000
0.102722 0.292816 1.000000
0.153809 0.332397 1.000000
0.205566 0.371735 1.000000
0.257996 0.410645 1.000000
0.311096 0.449310 1.000000
0.364868 0.487549 1.000000
0.419189 0.525574 1.000000
0.473877 0.563324 1.000000
0.175201 0.385010 1.000000
0.227936 0.423859 1.000000
0.281128 0.462372 1.000000
0.334778 0.500671 1.000000
0.388947 0.538757 1.000000
0.443512 0.576599 1.000000
0.498352 0.614349 1.000000
0.553253 0.652039 1.000000
0.250977 0.475494 1.000000
0.305511 0.513336 1.000000
0.360443 0.551056 1.000000
0.415771 0.588531 1.000000
0.471405 0.625854 1.000000
0.527222 0.663055 1.000000
0.583130 0.700226 1.000000
0.638977 0.737457 1.000000
0.332123 0.563263 1.000000
0.388794 0.600067 1.000000
0.445740 0.636688 1.000000
0.502930 0.673248 1.000000
0.560333 0.709625 1.000000
0.617828 0.746033 1.000000
0.675232 0.782471 1.000000
0.732391 0.818970 1.000000
0.420563 0.647308 1.000000
0.479492 0.682983 1.000000
0.538544 0.718536 1.000000
0.597809 0.753998 1.000000
0.657196 0.789429 1.000000
0.716522 0.824860 1.000000
0.775726 0.860413 1.000000
0.834473 0.896118 1.000000
0.000031 0.077576 0.487061
0.000031 0.107574 0.678375
0.000031 0.136780 0.873596
0.019348 0.168976 1.000000
0.071899 0.207886 1.000000
0.125458 0.246246 1.000000
0.180664 0.283813 1.000000
0.237305 0.320587 1.000000
0.000031 0.140839 0.840027
0.007202 0.172974 1.000000
0.057617 0.212952 1.000000
0.108917 0.252502 1.000000
0.161102 0.291595 1.000000
0.214233 0.330139 1.000000
0.268494 0.368164 1.000000
0.323792 0.405640 1.000000
0.039978 0.219757 1.000000
0.090118 0.259857 1.000000
0.140839 0.299683 1.000000
0.192352 0.339111 1.000000
0.244537 0.378143 1.000000
0.297607 0.416809 1.000000
0.351288 0.455078 1.000000
0.405579 0.493042 1.000000
0.117218 0.309479 1.000000
0.168427 0.349060 1.000000
0.220184 0.388336 1.000000
0.272339 0.427429 1.000000
0.325226 0.466156 1.000000
0.378510 0.504639 1.000000
0.432159 0.542999 1.000000
0.486115 0.581146 1.000000
0.193146 0.399933 1.000000
0.245880 0.438751 1.000000
0.298920 0.477386 1.000000
0.352386 0.515778 1.000000
0.406250 0.554016 1.000000
0.460388 0.592102 1.000000
0.514709 0.630127 1.000000
0.569122 0.667999 1.000000
0.270630 0.489532 1.000000
0.325104 0.527435 1.000000
0.379974 0.565186 1.000000
0.435059 0.602783 1.000000
0.490387 0.640259 1.000000
0.545868 0.677643 1.000000
0.601379 0.714996 1.000000
0.656921 0.752411 1.000000
0.351959 0.577240 1.000000
0.408630 0.614014 1.000000
0.465485 0.650696 1.000000
0.522614 0.687286 1.000000
0.579865 0.723755 1.000000
0.637146 0.760284 1.000000
0.694366 0.796753 1.000000
0.751434 0.833344 1.000000
0.438965 0.662018 1.000000
0.498169 0.697540 1.000000
0.557495 0.732941 1.000000
0.616943 0.768341 1.000000
0.676483 0.803680 1.000000
0.735931 0.839050 1.000000
0.795288 0.874481 1.000000
0.854370 0.910034 1.000000
