projects/Assignment1/res/luts/cool.cube
#Created by: Adobe Photoshop Export Color Lookup Plugin
TITLE "Cooling"
#LUT size
LUT_3D_SIZE 5
#data domain
#LUT data points
DOMAIN_MIN 0.000000 0.000000 0.000000
DOMAIN_MAX 0.903226 0.903226 0.903226
0.000000 0.000000 0.000000
0.124084 0.041321 0.055969
0.264221 0.071228 0.128998
0.403717 0.100311 0.208466
0.543335 0.129364 0.287842
0.083832 0.152008 0.167419
0.205078 0.194702 0.223297
0.362122 0.217865 0.286743
0.528870 0.231445 0.374847
0.672363 0.259796 0.447083
0.146637 0.313354 0.341644
0.243805 0.367584 0.401642
0.410065 0.390259 0.442230
0.565765 0.415131 0.500183
0.724304 0.435944 0.571991
0.209229 0.474884 0.515747
0.277496 0.541840 0.586243
0.454407 0.561127 0.616333
0.614868 0.585999 0.661133
0.770355 0.611298 0.717072
0.271881 0.636383 0.689819
0.339966 0.703644 0.759430
0.482574 0.738098 0.801331
0.660553 0.756409 0.833588
0.819550 0.781738 0.880188
0.000031 0.009460 0.175354
0.057495 0.064880 0.336578
0.207184 0.095184 0.381927
0.378693 0.116302 0.416748
0.531433 0.144501 0.464905
0.079956 0.157684 0.372986
0.150146 0.223328 0.445496
0.300262 0.252197 0.497162
0.497528 0.256317 0.553009
0.662018 0.276611 0.611023
0.152985 0.324310 0.491394
0.221771 0.390961 0.562164
0.350952 0.430328 0.614288
0.543549 0.440735 0.649231
0.713257 0.458527 0.706787
0.221344 0.489624 0.629486
0.289673 0.556671 0.699432
0.372162 0.616730 0.768097
0.595673 0.615112 0.783142
0.763611 0.635864 0.829651
0.287354 0.653687 0.780731
0.355438 0.720947 0.850037
0.424347 0.787140 0.922821
0.640625 0.789307 0.937256
0.814697 0.808533 0.975494
0.000031 0.030914 0.286163
0.026459 0.079163 0.570709
0.105896 0.138123 0.653564
0.191956 0.191956 0.746002
0.456055 0.174011 0.737701
0.061676 0.164490 0.612213
0.131439 0.230652 0.683105
0.205353 0.293427 0.760345
0.287994 0.349640 0.849243
0.585785 0.307922 0.876801
0.144379 0.328674 0.717224
0.213165 0.395447 0.787048
0.284210 0.460358 0.861298
0.358337 0.522522 0.941345
0.628052 0.499023 0.947845
0.218933 0.495422 0.830902
0.287323 0.562531 0.900208
0.356964 0.628357 0.972809
0.456604 0.687469 1.000000
0.689056 0.684143 1.000000
0.289795 0.661804 0.956482
0.377838 0.723724 1.000000
0.501587 0.775604 1.000000
0.625824 0.827271 1.000000
0.799377 0.853790 1.000000
0.000031 0.052917 0.393646
0.000031 0.099274 0.760864
0.064636 0.159515 0.877167
0.146332 0.216858 0.962708
0.255859 0.269043 1.000000
0.036072 0.175232 0.850342
0.105347 0.241791 0.920258
0.177765 0.305878 0.994720
0.273041 0.371338 1.000000
0.375488 0.434052 1.000000
0.128082 0.334595 0.955963
0.205505 0.401825 1.000000
0.300476 0.468384 1.000000
0.397522 0.533844 1.000000
0.495850 0.598633 1.000000
0.236633 0.497009 1.000000
0.335785 0.561371 1.000000
0.436432 0.625031 1.000000
0.537964 0.688202 1.000000
0.639557 0.751404 1.000000
0.383087 0.648315 1.000000
0.490143 0.708710 1.000000
0.597900 0.768768 1.000000
0.705811 0.828705 1.000000
0.812927 0.889008 1.000000
0.000031 0.077576 0.487061
0.000031 0.129639 0.823914
0.045349 0.188538 1.000000
0.139099 0.255676 1.000000
0.237305 0.320587 1.000000
0.019897 0.197662 1.000000
0.107758 0.267792 1.000000
0.197937 0.336792 1.000000
0.290558 0.404510 1.000000
0.385406 0.471100 1.000000
0.155121 0.354706 1.000000
0.246307 0.423187 1.000000
0.338837 0.490967 1.000000
0.432617 0.558075 1.000000
0.527130 0.624817 1.000000
0.290588 0.511688 1.000000
0.386932 0.577454 1.000000
0.484283 0.642792 1.000000
0.582062 0.707886 1.000000
0.679810 0.772980 1.000000
0.438965 0.662018 1.000000
0.542664 0.724121 1.000000
0.646698 0.785980 1.000000
0.750793 0.847900 1.000000
0.854370 0.910034 1.000000
