projects/Assignment1/res/luts/cool.cube
#Created by: Adobe Photoshop Export Color Lookup Plugin
TITLE "Cooling"
#LUT size
LUT_3D_SIZE 32
#data domain
DOMAIN_MIN 0.0 0.0 0.0
DOMAIN_MAX 1.0 1.0 1.0
#LUT data points
0.000000 0.000000 0.000000
0.013977 0.007751 0.008118
0.027771 0.015472 0.017120
0.044312 0.022003 0.024963
0.063019 0.027466 0.032562
0.083282 0.032227 0.039825
0.103699 0.036865 0.047546
0.124084 0.041321 0.055969
0.143951 0.045868 0.065216
0.164154 0.050323 0.074249
0.184235 0.054565 0.084503
0.204376 0.058777 0.095184
0.224365 0.062897 0.106476
0.244232 0.067108 0.117523
0.264221 0.071228 0.128998
0.284119 0.075378 0.140198
0.304047 0.079498 0.151978
0.324066 0.083679 0.163147
0.343872 0.087830 0.174591
0.363861 0.091949 0.185944
0.383850 0.096100 0.197083
0.403717 0.100311 0.208466
0.423645 0.104462 0.219727
0.443634 0.108582 0.231110
0.463593 0.112732 0.242340
0.483429 0.116882 0.253784
0.503418 0.121094 0.265106
0.523376 0.125214 0.276428
0.543335 0.129364 0.287842
0.563232 0.133514 0.299042
0.583191 0.137665 0.310455
0.603149 0.141785 0.321777
0.015594 0.020294 0.021759
0.028931 0.028229 0.030823
0.043915 0.035309 0.039886
0.060211 0.041901 0.048004
0.079468 0.046967 0.056305
0.100311 0.051239 0.064575
0.121521 0.055389 0.072357
0.141510 0.060028 0.080811
0.162018 0.064392 0.089447
0.182373 0.068665 0.098846
0.202332 0.073059 0.109283
0.222717 0.077179 0.119354
0.242615 0.081421 0.130249
0.262634 0.085632 0.141205
0.282532 0.089813 0.152313
0.302551 0.094025 0.163208
0.322601 0.098206 0.174042
0.342407 0.102417 0.185333
0.362457 0.106567 0.196533
0.382416 0.110809 0.207520
0.402496 0.114899 0.218689
0.422424 0.119049 0.229889
0.442383 0.123230 0.241028
0.462341 0.127350 0.252472
0.482330 0.131531 0.263580
0.502197 0.135681 0.274902
0.522125 0.139893 0.286072
0.542114 0.144043 0.297302
0.562073 0.148163 0.308624
0.581970 0.152344 0.319763
0.601959 0.156525 0.331146
0.621948 0.160675 0.342377
0.031097 0.040497 0.044067
0.043610 0.048737 0.053467
0.058594 0.055847 0.062561
0.074951 0.062469 0.070679
0.094177 0.067535 0.078857
0.115265 0.071777 0.086548
0.136841 0.075623 0.095062
0.157867 0.079651 0.104095
0.179657 0.083008 0.114502
0.200409 0.087036 0.124390
0.220642 0.091339 0.134155
0.240540 0.095703 0.144318
0.260651 0.100006 0.154327
0.280701 0.104218 0.164948
0.300751 0.108490 0.175690
0.320953 0.112610 0.186462
0.340820 0.116852 0.197327
0.360962 0.121094 0.207794
0.380951 0.125214 0.218964
0.401031 0.129425 0.229553
0.420959 0.133636 0.240570
0.440918 0.137817 0.251801
0.461029 0.141998 0.262756
0.480927 0.146179 0.273956
0.500946 0.150360 0.284912
0.520935 0.154510 0.296143
0.540924 0.158691 0.307159
0.560852 0.162842 0.318298
0.580750 0.167023 0.329559
0.600739 0.171173 0.340729
0.620728 0.175354 0.351837
0.640625 0.179535 0.363068
0.044342 0.061737 0.067108
0.056854 0.069916 0.076843
0.070740 0.077576 0.086090
0.087128 0.084137 0.094116
0.106354 0.089203 0.102325
0.128387 0.092926 0.110352
0.149323 0.097137 0.118500
0.171265 0.100647 0.128082
0.192627 0.104340 0.137970
0.214722 0.107513 0.148621
0.236145 0.110992 0.159485
0.258484 0.113922 0.170776
0.278656 0.118286 0.180359
0.298798 0.122559 0.190491
0.318878 0.126831 0.200714
0.338989 0.131104 0.210846
0.359100 0.135315 0.221619
0.379272 0.139557 0.231781
0.399231 0.143829 0.242493
0.419373 0.148010 0.252930
0.439392 0.152222 0.263763
0.459412 0.156433 0.274536
0.479401 0.160645 0.285522
0.499420 0.164795 0.296448
0.519470 0.169006 0.307251
0.539368 0.173187 0.318329
0.559387 0.177460 0.329254
0.579376 0.181610 0.340240
0.599396 0.185760 0.351349
0.619415 0.189941 0.362274
0.639343 0.194153 0.373444
0.659332 0.198303 0.384552
0.056213 0.083374 0.091827
0.067322 0.092041 0.102936
0.081329 0.099670 0.111755
0.097534 0.106232 0.120239
0.116943 0.111328 0.128021
0.139130 0.114960 0.135803
0.160126 0.119141 0.144043
0.182434 0.122711 0.152222
0.204498 0.126068 0.161865
0.226074 0.129639 0.171814
0.247742 0.133179 0.181854
0.270599 0.135834 0.193359
0.292694 0.138885 0.204620
0.315308 0.141571 0.216461
0.336761 0.145142 0.226959
0.356842 0.149384 0.237152
0.377106 0.153656 0.246979
0.397278 0.157928 0.257019
0.417328 0.162231 0.267395
0.437469 0.166443 0.277802
0.457611 0.170715 0.288055
0.477631 0.174957 0.298767
0.497650 0.179169 0.309357
0.517731 0.183411 0.319855
0.537720 0.187592 0.330750
0.557739 0.191833 0.341339
0.577728 0.196014 0.352325
0.597778 0.200226 0.363190
0.617889 0.204407 0.373871
0.637787 0.208618 0.384888
0.657867 0.212830 0.395782
0.677887 0.217010 0.406647
0.066132 0.105652 0.117981
0.075745 0.115326 0.127899
0.089355 0.123016 0.137329
0.106689 0.129120 0.145569
0.125977 0.134247 0.153442
0.146484 0.138885 0.160675
0.169739 0.142029 0.168304
0.191254 0.145905 0.176666
0.213043 0.149658 0.185059
0.235443 0.152893 0.194550
0.257843 0.156067 0.204407
0.280182 0.159241 0.214478
0.302338 0.162323 0.225525
0.325104 0.165039 0.236664
0.348297 0.167419 0.248871
0.370819 0.170227 0.260406
0.394531 0.172150 0.273468
0.414886 0.176270 0.283783
0.435181 0.180511 0.293518
0.455322 0.184784 0.303589
0.475555 0.189056 0.313690
0.495697 0.193329 0.323761
0.515808 0.197632 0.334045
0.535950 0.201843 0.344482
0.556000 0.206055 0.354950
0.576019 0.210327 0.365631
0.596069 0.214539 0.376129
0.616150 0.218750 0.386749
0.636200 0.222961 0.397491
0.656158 0.227203 0.408112
0.676270 0.231384 0.418854
0.696167 0.235626 0.429779
0.075134 0.128754 0.142761
0.084869 0.138245 0.153076
0.095886 0.147156 0.163177
0.112244 0.153809 0.170868
0.132477 0.158569 0.178253
0.154022 0.162750 0.184937
0.176605 0.166382 0.191895
0.198364 0.170349 0.199341
0.220825 0.173767 0.207794
0.242706 0.177399 0.216644
0.265747 0.180328 0.225983
0.287659 0.183777 0.235565
0.310028 0.186829 0.246063
0.333069 0.189575 0.256653
0.355713 0.192352 0.267822
0.378754 0.194824 0.279602
0.402069 0.197174 0.291809
0.425751 0.199158 0.304352
0.449646 0.200989 0.317444
0.473145 0.203003 0.330475
0.493256 0.207336 0.340302
0.513458 0.211639 0.350006
0.533630 0.215942 0.360016
0.553833 0.220184 0.370148
0.573944 0.224457 0.380371
0.594025 0.228729 0.390625
0.614258 0.232971 0.400879
0.634216 0.237244 0.411316
0.654327 0.241455 0.421814
0.674438 0.245697 0.432373
0.694427 0.249939 0.442932
0.714508 0.254150 0.453522
0.083832 0.152008 0.167419
0.093750 0.161407 0.177856
0.103607 0.170807 0.188507
0.119293 0.177795 0.196136
0.138580 0.183044 0.203308
0.159943 0.187347 0.210052
0.183044 0.190826 0.216095
0.205078 0.194702 0.223297
0.227570 0.198212 0.230957
0.250092 0.201721 0.238892
0.271881 0.205414 0.247437
0.294739 0.208527 0.256744
0.316986 0.211884 0.266083
0.339539 0.214874 0.276215
0.362122 0.217865 0.286743
0.385162 0.220490 0.297791
0.408478 0.222778 0.309692
0.432312 0.224762 0.321960
0.455780 0.226898 0.334473
0.479614 0.228912 0.347015
0.504303 0.230164 0.360962
0.528870 0.231445 0.374847
0.551422 0.234161 0.386841
0.571655 0.238434 0.396698
0.591888 0.242737 0.406525
0.611938 0.247009 0.416626
0.632080 0.251343 0.426636
0.652222 0.255585 0.436768
0.672363 0.259796 0.447083
0.692444 0.264099 0.457306
0.712585 0.268372 0.467743
0.732666 0.272583 0.478180
0.092957 0.174927 0.192444
0.102570 0.184570 0.202454
0.112396 0.194000 0.212921
0.125732 0.201935 0.222137
0.145142 0.207214 0.228882
0.165588 0.212006 0.235260
0.189880 0.214996 0.241180
0.212280 0.218781 0.247620
0.234955 0.222290 0.254791
0.256927 0.226135 0.262177
0.279236 0.229706 0.270142
0.301453 0.233276 0.278442
0.324036 0.236542 0.287384
0.345917 0.240051 0.296692
0.368652 0.243042 0.306580
0.391235 0.246063 0.316956
0.414124 0.248840 0.327759
0.436493 0.251801 0.338654
0.460541 0.253723 0.350739
0.484161 0.255859 0.362915
0.508972 0.257111 0.376495
0.533112 0.258820 0.389496
0.557831 0.260071 0.403320
0.583069 0.260956 0.417786
0.608368 0.261749 0.432465
0.629700 0.265289 0.443390
0.649902 0.269592 0.453125
0.670105 0.273865 0.463043
0.690247 0.278137 0.473083
0.710388 0.282440 0.483185
0.730560 0.286682 0.493317
0.750702 0.290955 0.503540
0.101898 0.198029 0.217255
0.111603 0.207581 0.227539
0.121368 0.217163 0.237457
0.131226 0.226532 0.248260
0.150330 0.231934 0.254944
0.171722 0.236359 0.260986
0.195770 0.239532 0.266113
0.219269 0.242920 0.272156
0.241638 0.246704 0.278717
0.263855 0.250519 0.285736
0.286224 0.254120 0.293396
0.308472 0.257721 0.301208
0.330475 0.261383 0.309509
0.352814 0.264832 0.318146
0.374939 0.268280 0.327271
0.397217 0.271515 0.337067
0.420166 0.274414 0.347137
0.442596 0.277527 0.357239
0.465668 0.280121 0.368378
0.488831 0.282654 0.379669
0.512054 0.285095 0.391205
0.535889 0.287018 0.403748
0.560211 0.288635 0.416779
0.585358 0.289612 0.430664
0.610809 0.290436 0.445038
0.636230 0.291138 0.459839
0.662170 0.291473 0.475159
0.687744 0.292145 0.490143
0.708008 0.296417 0.499847
0.728088 0.300720 0.509796
0.748352 0.304993 0.519684
0.768555 0.309265 0.529572
0.110809 0.221130 0.242157
0.120514 0.230682 0.252350
0.130249 0.240265 0.262238
0.140137 0.249664 0.272797
0.155304 0.256805 0.281219
0.176788 0.261200 0.287018
0.201019 0.264313 0.292023
0.225311 0.267395 0.297302
0.248230 0.271027 0.303223
0.270599 0.274780 0.309967
0.293213 0.278381 0.317017
0.315430 0.282074 0.324738
0.337585 0.285797 0.332458
0.359772 0.289337 0.340729
0.382263 0.292694 0.349396
0.404053 0.296356 0.358246
0.426788 0.299438 0.367676
0.448975 0.302765 0.377319
0.471680 0.305695 0.387512
0.494507 0.308594 0.398071
0.517212 0.311432 0.408844
0.540344 0.313934 0.420319
0.563751 0.316223 0.432098
0.587738 0.318115 0.444397
0.612030 0.319733 0.457520
0.636780 0.321045 0.471008
0.662720 0.321472 0.485992
0.688843 0.321716 0.501373
0.715118 0.321899 0.516693
0.741516 0.321869 0.532684
0.766052 0.323212 0.546631
0.786316 0.327545 0.556366
0.119781 0.244141 0.267090
0.129517 0.253723 0.277100
0.139221 0.263306 0.287231
0.149109 0.272766 0.297577
0.160309 0.281616 0.307434
0.181763 0.286041 0.313141
0.206024 0.289215 0.318115
0.230560 0.292236 0.322906
0.253906 0.295685 0.328613
0.277374 0.299042 0.334503
0.300049 0.302643 0.341461
0.322540 0.306305 0.348419
0.344727 0.310059 0.355743
0.366913 0.313660 0.363770
0.388947 0.317352 0.371918
0.411163 0.320923 0.380402
0.433777 0.324158 0.389313
0.455841 0.327637 0.398285
0.477966 0.330963 0.407959
0.500854 0.333893 0.417908
0.523285 0.337006 0.427948
0.546021 0.339874 0.438660
0.568939 0.342529 0.449646
0.592285 0.344971 0.461151
0.615784 0.347198 0.473053
0.639465 0.349304 0.485291
0.663696 0.350952 0.498169
0.688171 0.352448 0.511475
0.713776 0.353088 0.526001
0.739685 0.353485 0.541107
0.767395 0.352692 0.557861
0.794342 0.352356 0.574249
0.128632 0.267273 0.291840
0.138428 0.276794 0.302063
0.148224 0.286346 0.311981
0.157928 0.295959 0.322052
0.167725 0.305389 0.332642
0.185364 0.311493 0.339874
0.209961 0.314514 0.344330
0.236115 0.316895 0.348602
0.260132 0.320099 0.353821
0.283875 0.323364 0.359619
0.306549 0.327057 0.365906
0.329590 0.330475 0.372498
0.351807 0.334259 0.379730
0.374176 0.337860 0.387115
0.396240 0.341614 0.394897
0.418427 0.345215 0.402954
0.440674 0.348785 0.411469
0.462952 0.352203 0.420319
0.485046 0.355713 0.429260
0.507416 0.358978 0.438629
0.529877 0.362152 0.448364
0.552460 0.365173 0.458313
0.575012 0.368164 0.468872
0.597687 0.371063 0.479309
0.620728 0.373718 0.490295
0.643799 0.376221 0.501801
0.667297 0.378479 0.513580
0.691223 0.380432 0.526001
0.715576 0.382050 0.539001
0.739868 0.383636 0.552094
0.765106 0.384583 0.566254
0.791168 0.384888 0.581360
0.137634 0.290344 0.316650
0.147461 0.299835 0.326874
0.157196 0.309448 0.336823
0.166901 0.319061 0.346863
0.176666 0.328522 0.357361
0.190033 0.336426 0.366302
0.213623 0.339935 0.371063
0.240570 0.341949 0.374817
0.265533 0.344788 0.379486
0.289825 0.347839 0.384888
0.312927 0.351410 0.390686
0.336243 0.354797 0.397064
0.358643 0.358551 0.403931
0.381134 0.362183 0.410980
0.403290 0.365936 0.418457
0.425507 0.369598 0.426147
0.447723 0.373199 0.434204
0.469910 0.376709 0.442627
0.491974 0.380280 0.451202
0.514313 0.383728 0.460144
0.536652 0.387024 0.469452
0.559052 0.390259 0.478943
0.581177 0.393585 0.488800
0.603912 0.396545 0.498810
0.626587 0.399445 0.509247
0.649323 0.402283 0.519958
0.672424 0.404907 0.531067
0.695770 0.407257 0.542572
0.719391 0.409424 0.554565
0.742920 0.411591 0.566742
0.767059 0.413361 0.579437
0.791626 0.414795 0.592865
0.146637 0.313354 0.341644
0.156342 0.322968 0.351532
0.166046 0.332550 0.361572
0.175720 0.342163 0.371552
0.185577 0.351685 0.381866
0.195496 0.361084 0.392456
0.217041 0.365448 0.398193
0.243805 0.367584 0.401642
0.270752 0.369598 0.405426
0.295166 0.372620 0.410400
0.319153 0.375793 0.415924
0.342407 0.379242 0.421875
0.365112 0.382904 0.428436
0.387756 0.386505 0.435150
0.410065 0.390259 0.442230
0.432404 0.393982 0.449677
0.454651 0.397614 0.457397
0.476898 0.401184 0.465485
0.498901 0.404846 0.473694
0.521423 0.408203 0.482391
0.543457 0.411743 0.491150
0.565765 0.415131 0.500183
0.588043 0.418427 0.509521
0.610565 0.421631 0.519348
0.633057 0.424713 0.529266
0.655609 0.427765 0.539490
0.678345 0.430664 0.549866
0.701141 0.433441 0.560730
0.724304 0.435944 0.571991
0.747559 0.438385 0.583466
0.770844 0.440735 0.595184
0.794647 0.442749 0.607574
0.155579 0.336426 0.366577
0.165314 0.346069 0.376404
0.174988 0.355652 0.386383
0.184814 0.365173 0.396515
0.194611 0.374695 0.406799
0.204346 0.384186 0.417114
0.219666 0.391266 0.425354
0.246460 0.393402 0.428741
0.274353 0.395081 0.431946
0.300415 0.397430 0.436218
0.324921 0.400391 0.441437
0.348633 0.403687 0.447021
0.371674 0.407257 0.453033
0.394531 0.410828 0.459564
0.416962 0.414551 0.466370
0.439331 0.418213 0.473480
0.461914 0.421783 0.481018
0.483978 0.425537 0.488678
0.506042 0.429260 0.496582
0.528534 0.432648 0.504822
0.550507 0.436310 0.513336
0.572754 0.439758 0.522034
0.594940 0.443207 0.531097
0.617279 0.446472 0.540405
0.639709 0.449707 0.549896
0.662048 0.452942 0.559723
0.684601 0.455963 0.569733
0.707153 0.459045 0.579987
0.730072 0.461823 0.590729
0.752808 0.464661 0.601440
0.775879 0.467224 0.612671
0.799225 0.469574 0.624207
0.164398 0.359589 0.391296
0.174194 0.369141 0.401398
0.183960 0.378723 0.411255
0.193604 0.388397 0.421143
0.203369 0.397888 0.431396
0.213287 0.407379 0.441772
0.223145 0.416809 0.452362
0.248352 0.419647 0.456329
0.278198 0.420410 0.458618
0.305450 0.422272 0.462280
0.330353 0.425171 0.466888
0.354462 0.428284 0.472260
0.377777 0.431732 0.478180
0.400909 0.435242 0.484314
0.423553 0.438904 0.490814
0.446350 0.442413 0.497589
0.468567 0.446228 0.504761
0.490936 0.449890 0.512299
0.513306 0.453491 0.519897
0.535522 0.457092 0.527924
0.557526 0.460785 0.536011
0.579773 0.464325 0.544403
0.602051 0.467743 0.553223
0.624207 0.471222 0.562012
0.646515 0.474609 0.571198
0.668945 0.477844 0.580688
0.691345 0.481079 0.590271
0.713562 0.484344 0.600098
0.736237 0.487274 0.610291
0.758942 0.490234 0.620636
0.781586 0.493134 0.631195
0.804596 0.495789 0.642242
0.173431 0.382660 0.416260
0.183105 0.392273 0.426086
0.192810 0.401886 0.436035
0.202606 0.411438 0.446106
0.212372 0.420990 0.456207
0.222229 0.430420 0.466583
0.231964 0.439941 0.476990
0.250061 0.445831 0.484009
0.280487 0.446381 0.486084
0.308899 0.447815 0.489075
0.335419 0.449982 0.492981
0.360107 0.452911 0.497925
0.383911 0.456177 0.503326
0.407013 0.459717 0.509277
0.430206 0.463165 0.515533
0.453186 0.466675 0.522156
0.475525 0.470428 0.528839
0.498016 0.474121 0.536102
0.520325 0.477783 0.543610
0.542480 0.481506 0.551086
0.564697 0.485107 0.558990
0.586884 0.488708 0.567291
0.609009 0.492310 0.575500
0.631073 0.495880 0.584137
0.653320 0.499329 0.592987
0.675690 0.502655 0.602051
0.697968 0.505981 0.611267
0.720398 0.509186 0.620819
0.742645 0.512543 0.630585
0.765350 0.515503 0.640656
0.787842 0.518585 0.650848
0.810608 0.521454 0.661316
0.182343 0.405701 0.441040
0.192078 0.415344 0.450958
0.201782 0.424988 0.460907
0.211548 0.434540 0.470917
0.221344 0.444092 0.481018
0.231171 0.453552 0.491333
0.240906 0.463074 0.501587
0.251160 0.472321 0.511993
0.281525 0.472931 0.513977
0.312103 0.473389 0.515900
0.339355 0.475311 0.519318
0.365326 0.477661 0.523682
0.389587 0.480774 0.528900
0.413177 0.484192 0.534424
0.436584 0.487549 0.540405
0.459778 0.490997 0.546692
0.482239 0.494751 0.553406
0.504822 0.498352 0.560333
0.527283 0.502014 0.567413
0.549469 0.505768 0.574829
0.571716 0.509399 0.582489
0.593964 0.513062 0.590271
0.616119 0.516724 0.598297
0.638184 0.520325 0.606628
0.660400 0.523865 0.615204
0.682709 0.527252 0.623932
0.704926 0.530701 0.632874
0.727112 0.534088 0.642059
0.749420 0.537415 0.651489
0.771942 0.540527 0.661194
0.794312 0.543762 0.670990
0.816895 0.546753 0.681061
0.191315 0.428802 0.465942
0.201080 0.438354 0.475952
0.210785 0.447998 0.485779
0.220459 0.457611 0.495605
0.230194 0.467163 0.505798
0.240082 0.476685 0.516144
0.249817 0.486237 0.526306
0.259674 0.495667 0.536804
0.281982 0.499695 0.542145
0.314209 0.499512 0.543213
0.343109 0.500732 0.545929
0.370087 0.502655 0.549744
0.394928 0.505524 0.554596
0.419281 0.508575 0.559723
0.442749 0.511993 0.565430
0.465912 0.515503 0.571472
0.488831 0.519073 0.577972
0.511597 0.522675 0.584564
0.533936 0.526428 0.591522
0.556396 0.530060 0.598663
0.578766 0.533722 0.606049
0.600952 0.537384 0.613739
0.623108 0.541046 0.621521
0.645264 0.544708 0.629486
0.667603 0.548187 0.637787
0.689575 0.551910 0.646271
0.711945 0.555298 0.654968
0.734039 0.558777 0.663879
0.756409 0.562103 0.672974
0.778625 0.565521 0.682220
0.801025 0.568756 0.691742
0.823456 0.571899 0.701508
0.200348 0.451843 0.490875
0.210022 0.461456 0.500763
0.219727 0.471100 0.510529
0.229462 0.480652 0.520630
0.239227 0.490204 0.530701
0.248962 0.499756 0.540833
0.258789 0.509247 0.551147
0.268555 0.518768 0.561523
0.280884 0.527130 0.570862
0.314545 0.526367 0.571442
0.346436 0.526276 0.572876
0.374207 0.527924 0.576202
0.399963 0.530426 0.580444
0.424744 0.533325 0.585419
0.448578 0.536560 0.590820
0.472015 0.539948 0.596649
0.495270 0.543427 0.602631
0.518158 0.547028 0.609131
0.540680 0.550720 0.615784
0.563446 0.554260 0.622803
0.585663 0.558014 0.629913
0.607941 0.561707 0.637360
0.630157 0.565399 0.644958
0.652435 0.569000 0.652802
0.674622 0.572601 0.660828
0.696777 0.576233 0.668976
0.718933 0.579803 0.677429
0.741028 0.583344 0.686005
0.763367 0.586731 0.694824
0.785461 0.590240 0.703888
0.807770 0.593597 0.713043
0.830170 0.596863 0.722443
0.209229 0.474884 0.515747
0.218964 0.484558 0.525543
0.228668 0.494202 0.535431
0.238403 0.503754 0.545380
0.248169 0.513336 0.555450
0.257904 0.522888 0.565582
0.267700 0.532379 0.575836
0.277496 0.541840 0.586243
0.287231 0.551361 0.596588
0.313354 0.553802 0.600311
0.347992 0.552551 0.600494
0.377747 0.553406 0.602783
0.404388 0.555511 0.606659
0.429871 0.558167 0.611176
0.454407 0.561127 0.616333
0.477997 0.564514 0.621826
0.501617 0.567780 0.627747
0.524536 0.571381 0.633942
0.547211 0.575043 0.640350
0.570068 0.578552 0.647095
0.592438 0.582306 0.654022
0.614868 0.585999 0.661133
0.637146 0.589691 0.668518
0.659485 0.593323 0.676178
0.681671 0.596985 0.683960
0.703796 0.600647 0.692017
0.725983 0.604248 0.700165
0.748199 0.607758 0.708527
0.770355 0.611298 0.717072
0.792572 0.614777 0.725830
0.814819 0.618195 0.734711
0.837006 0.621613 0.743866
0.218201 0.497986 0.540649
0.227875 0.507599 0.550385
0.237610 0.517242 0.560303
0.247345 0.526794 0.570221
0.257080 0.536407 0.580200
0.266846 0.546021 0.590332
0.276611 0.555511 0.600586
0.286438 0.564972 0.610962
0.296204 0.574493 0.621307
0.312439 0.581177 0.629181
0.348907 0.579163 0.628479
0.380310 0.579315 0.630005
0.408234 0.580872 0.633209
0.434509 0.583160 0.637268
0.459656 0.585907 0.642090
0.483948 0.588989 0.647217
0.507599 0.592316 0.652954
0.530762 0.595825 0.658905
0.553864 0.599335 0.665100
0.576660 0.602936 0.671661
0.599121 0.606628 0.678345
0.621674 0.610260 0.685272
0.644165 0.613892 0.692413
0.666382 0.617615 0.699829
0.688660 0.621307 0.707428
0.710999 0.624939 0.715210
0.733185 0.628571 0.723145
0.755432 0.632141 0.731323
0.777405 0.635803 0.739624
0.799591 0.639343 0.748108
0.821808 0.642792 0.756805
0.843933 0.646301 0.765686
0.227112 0.521057 0.565491
0.236908 0.530670 0.575348
0.246582 0.540314 0.585205
0.256256 0.549927 0.595032
0.265991 0.559509 0.605072
0.275787 0.569031 0.615204
0.285522 0.578613 0.625336
0.295319 0.588104 0.635651
0.305145 0.597534 0.646057
0.315002 0.607025 0.656616
0.345978 0.607391 0.658112
0.382355 0.605408 0.657532
0.411926 0.606293 0.659943
0.438812 0.608337 0.663574
0.464630 0.610809 0.667999
0.489594 0.613617 0.672882
0.513428 0.616882 0.678223
0.537048 0.620239 0.684021
0.560120 0.623779 0.690094
0.583191 0.627289 0.696289
0.605957 0.630890 0.702881
0.628540 0.634521 0.709625
0.650848 0.638306 0.716553
0.673248 0.641937 0.723785
0.695587 0.645630 0.731110
0.717926 0.649261 0.738739
0.740143 0.652893 0.746460
0.762268 0.656586 0.754395
0.784515 0.660126 0.762543
0.806732 0.663727 0.770782
0.828827 0.667328 0.779266
0.851044 0.670807 0.787933
0.236084 0.544098 0.590332
0.245758 0.553772 0.600159
0.255493 0.563416 0.609955
0.265228 0.572998 0.619873
0.274933 0.582611 0.629913
0.284668 0.592194 0.639954
0.294434 0.601715 0.650055
0.304260 0.611237 0.660370
0.314087 0.620697 0.670746
0.323853 0.630188 0.681152
0.344055 0.635132 0.687317
0.382050 0.632507 0.685822
0.414917 0.631989 0.687012
0.442657 0.633728 0.690125
0.469574 0.635712 0.694031
0.494751 0.638428 0.698639
0.518982 0.641571 0.703827
0.542877 0.644775 0.709320
0.566467 0.648102 0.715057
0.589447 0.651672 0.721222
0.612427 0.655212 0.727539
0.635193 0.658875 0.734131
0.657745 0.662537 0.740906
0.680115 0.666229 0.747894
0.702545 0.669922 0.755005
0.724884 0.673553 0.762390
0.747162 0.677216 0.769989
0.769409 0.680847 0.777710
0.791473 0.684570 0.785583
0.813782 0.688110 0.793640
0.835968 0.691681 0.801910
0.858093 0.695282 0.810364
0.245026 0.567200 0.615234
0.254761 0.576813 0.625031
0.264465 0.586426 0.634888
0.274139 0.596069 0.644714
0.283844 0.605682 0.654663
0.293640 0.615234 0.664795
0.303375 0.624817 0.674866
0.313171 0.634338 0.685150
0.322998 0.643829 0.695496
0.332825 0.653259 0.705933
0.342621 0.662750 0.716400
0.380432 0.660156 0.715088
0.415955 0.658539 0.714813
0.446472 0.658997 0.716888
0.473724 0.660889 0.720428
0.499542 0.663361 0.724670
0.524292 0.666321 0.729523
0.548584 0.669403 0.734802
0.572388 0.672638 0.740356
0.595703 0.676117 0.746216
0.618805 0.679596 0.752350
0.641724 0.683167 0.758759
0.664398 0.686829 0.765259
0.686859 0.690521 0.772095
0.709320 0.694183 0.779114
0.731812 0.697845 0.786346
0.754150 0.701538 0.793701
0.776428 0.705170 0.801239
0.798615 0.708832 0.809021
0.820862 0.712494 0.816864
0.842926 0.716156 0.824860
0.865112 0.719727 0.833130
0.253967 0.590302 0.640015
0.263702 0.599884 0.649902
0.273407 0.609558 0.659698
0.283081 0.619202 0.669556
0.292816 0.628784 0.679535
0.302582 0.638336 0.689606
0.312347 0.647858 0.699738
0.322083 0.657440 0.709839
0.331879 0.666901 0.720154
0.341675 0.676392 0.730530
0.351501 0.685913 0.740997
0.376373 0.688843 0.745270
0.416290 0.685364 0.743042
0.448578 0.685120 0.744263
0.477203 0.686462 0.747070
0.503784 0.688599 0.751007
0.529388 0.691162 0.755432
0.554047 0.694061 0.760376
0.578033 0.697327 0.765778
0.601898 0.700531 0.771423
0.625092 0.704010 0.777344
0.648132 0.707550 0.783569
0.670929 0.711151 0.790009
0.693726 0.714752 0.796570
0.716278 0.718384 0.803436
0.738708 0.722107 0.810425
0.760925 0.725861 0.817596
0.783264 0.729492 0.824951
0.805664 0.733124 0.832458
0.827881 0.736816 0.840210
0.849976 0.740509 0.848083
0.872253 0.744110 0.856110
0.262939 0.613312 0.664948
0.272614 0.622986 0.674744
0.282349 0.632629 0.684540
0.292084 0.642242 0.694519
0.301788 0.651855 0.704407
0.311493 0.661438 0.714386
0.321259 0.670990 0.724518
0.330994 0.680542 0.734589
0.340820 0.690063 0.744873
0.350616 0.699524 0.755219
0.360443 0.708954 0.765717
0.371185 0.718018 0.775848
0.414795 0.712952 0.772034
0.450256 0.711365 0.771881
0.480408 0.712067 0.773956
0.507935 0.713806 0.777435
0.534454 0.716003 0.781464
0.559143 0.718933 0.786224
