projects/Assignment1/res/luts/Custom.cube
#Created by: Adobe Photoshop Export Color Lookup Plugin
TITLE "Custom"
#LUT size
LUT_3D_SIZE 32
#data domain
DOMAIN_MIN 0.0 0.0 0.0
DOMAIN_MAX 1.0 1.0 1.0
#LUT data points
0.000000 0.000000 0.000000
0.016937 0.006470 0.007019
0.035126 0.012421 0.013489
0.056915 0.016754 0.018829
0.080750 0.020172 0.023315
0.104126 0.023743 0.028412
0.127655 0.027283 0.033478
0.151093 0.030670 0.039398
0.174683 0.033936 0.045380
0.198242 0.037231 0.051361
0.221527 0.040527 0.058289
0.245026 0.043701 0.065063
0.268280 0.046844 0.072784
0.291595 0.050018 0.080139
0.314728 0.053070 0.088470
0.337921 0.056061 0.097229
0.361084 0.059082 0.106018
0.384308 0.062073 0.114746
0.407440 0.065033 0.123596
0.430542 0.068054 0.132385
0.453735 0.071014 0.141144
0.476929 0.074036 0.149567
0.500092 0.077026 0.158386
0.523193 0.079987 0.167328
0.546387 0.083008 0.176025
0.569519 0.086029 0.184723
0.592743 0.089020 0.193573
0.615875 0.092010 0.202179
0.638977 0.095001 0.211151
0.662140 0.097992 0.219849
0.685333 0.100983 0.228577
0.708496 0.103973 0.237427
0.020233 0.018524 0.018494
0.038544 0.024078 0.026733
0.057007 0.029816 0.033569
0.078613 0.034210 0.038971
0.101807 0.037933 0.043793
0.124756 0.041687 0.049072
0.147919 0.045319 0.054230
0.171082 0.048798 0.060364
0.194519 0.052185 0.066406
0.217773 0.055542 0.072876
0.241119 0.058899 0.079346
0.264557 0.062103 0.086182
0.287781 0.065338 0.093536
0.310944 0.068481 0.101349
0.334045 0.071564 0.109741
0.357208 0.074585 0.118286
0.380341 0.077637 0.126953
0.403503 0.080627 0.135559
0.426666 0.083649 0.144318
0.449921 0.086700 0.152679
0.473053 0.089691 0.161377
0.496155 0.092712 0.170288
0.519257 0.095734 0.178955
0.542389 0.098755 0.187622
0.565552 0.101746 0.196228
0.588623 0.104767 0.205048
0.611877 0.107758 0.213654
0.634979 0.110748 0.222412
0.658112 0.113770 0.231110
0.681274 0.116760 0.239777
0.704468 0.119812 0.248474
0.727600 0.122803 0.257294
0.040466 0.037018 0.036926
0.058807 0.042572 0.045227
0.078186 0.047668 0.052979
0.100433 0.051605 0.059479
0.122955 0.055603 0.064545
0.145447 0.059540 0.070068
0.168457 0.063202 0.075470
0.191193 0.066895 0.081635
0.214417 0.070343 0.087646
0.237854 0.073700 0.093719
0.260956 0.077057 0.100616
0.284058 0.080414 0.107574
0.307220 0.083679 0.114960
0.330292 0.086853 0.122894
0.353363 0.089996 0.131256
0.376648 0.093018 0.139618
0.399628 0.096161 0.148071
0.422760 0.099182 0.156555
0.445892 0.102234 0.165192
0.469116 0.105286 0.173462
0.492218 0.108307 0.182037
0.515350 0.111359 0.190582
0.538483 0.114441 0.199219
0.561676 0.117432 0.208038
0.584747 0.120483 0.216553
0.607910 0.123474 0.225342
0.631042 0.126526 0.233887
0.654144 0.129517 0.242584
0.677338 0.132538 0.251251
0.700439 0.135559 0.259857
0.723633 0.138550 0.268494
0.746765 0.141571 0.277222
0.062775 0.054504 0.055664
0.081299 0.060089 0.063110
0.099579 0.065613 0.071411
0.121979 0.069244 0.078918
0.145203 0.072540 0.085907
0.167023 0.076752 0.091644
0.189484 0.080627 0.097595
0.212158 0.084442 0.103485
0.235046 0.088043 0.109680
0.258026 0.091553 0.116241
0.281036 0.095001 0.122803
0.303894 0.098389 0.130249
0.327057 0.101685 0.137421
0.349945 0.104858 0.145752
0.373077 0.108002 0.153748
0.396118 0.111206 0.161926
0.419250 0.114319 0.170197
0.442261 0.117493 0.178284
0.465302 0.120605 0.186920
0.488464 0.123688 0.195068
0.511566 0.126770 0.203430
0.534668 0.129852 0.211945
0.557770 0.132935 0.220398
0.580872 0.135986 0.228851
0.603973 0.139038 0.237549
0.627167 0.142029 0.245972
0.650299 0.145142 0.254456
0.673431 0.148193 0.263092
0.696594 0.151184 0.271667
0.719696 0.154266 0.280304
0.742859 0.157257 0.288849
0.765961 0.160309 0.297546
0.084290 0.072571 0.073151
0.103607 0.077606 0.081268
0.122406 0.082916 0.089386
0.142639 0.087463 0.097870
0.166077 0.090332 0.106567
0.189270 0.093445 0.114624
0.210968 0.097626 0.120789
0.233582 0.101501 0.126312
0.255798 0.105408 0.132751
0.278503 0.109039 0.139465
0.301422 0.112549 0.146240
0.324036 0.115997 0.153870
0.346893 0.119385 0.161316
0.369720 0.122681 0.169373
0.392822 0.125946 0.176758
0.415771 0.129150 0.185059
0.438843 0.132385 0.192810
0.461761 0.135590 0.200897
0.484833 0.138763 0.209167
0.507965 0.141907 0.217346
0.531006 0.145020 0.225616
0.554108 0.148132 0.233917
0.577179 0.151276 0.242249
0.600372 0.154358 0.250305
0.623444 0.157410 0.258850
0.646515 0.160522 0.267242
0.669586 0.163574 0.275787
0.692719 0.166656 0.284302
0.715912 0.169708 0.292603
0.739014 0.172729 0.301270
0.762146 0.175812 0.309814
0.785309 0.178894 0.318268
0.107910 0.089508 0.090759
0.126312 0.094910 0.099304
0.143158 0.101166 0.107849
0.163330 0.105774 0.116272
0.185699 0.109039 0.125885
0.209381 0.111664 0.135071
0.233398 0.114075 0.144562
0.255096 0.118286 0.150909
0.277161 0.122223 0.157501
0.299469 0.125977 0.164398
0.321991 0.129578 0.171600
0.344513 0.133209 0.178589
0.367188 0.136749 0.185852
0.389923 0.140198 0.193207
0.412903 0.143555 0.200775
0.435822 0.146881 0.208527
0.458710 0.150146 0.216278
0.481567 0.153473 0.224243
0.504578 0.156677 0.232147
0.527618 0.159882 0.240173
0.550598 0.163086 0.248260
0.573700 0.166229 0.256165
0.596771 0.169434 0.264374
0.619781 0.172577 0.272766
0.642883 0.175690 0.280945
0.665985 0.178802 0.289185
0.689087 0.181915 0.297577
0.712189 0.185028 0.305817
0.735291 0.188080 0.314209
0.758331 0.191193 0.322601
0.781494 0.194244 0.331177
0.804565 0.197327 0.339539
0.131165 0.106628 0.108582
0.146881 0.113403 0.117310
0.164398 0.119141 0.126556
0.183380 0.124146 0.135864
0.204224 0.128265 0.144989
0.227020 0.131226 0.154938
0.251892 0.132874 0.166046
0.277344 0.134399 0.176880
0.298950 0.138580 0.183472
0.320892 0.142548 0.190247
0.342865 0.146515 0.196899
0.365417 0.150177 0.203674
0.387848 0.153839 0.211029
0.410400 0.157410 0.218262
0.433014 0.160919 0.225555
0.455811 0.164398 0.232697
0.478699 0.167755 0.240601
0.501587 0.171112 0.248169
0.524475 0.174438 0.255676
0.547424 0.177734 0.263550
0.570435 0.180969 0.271423
0.593384 0.184174 0.279358
0.616425 0.187378 0.287323
0.639404 0.190613 0.295319
0.662476 0.193756 0.303406
0.685486 0.196930 0.311646
0.708649 0.200073 0.319763
0.731659 0.203247 0.328064
0.754761 0.206329 0.336334
0.777802 0.209473 0.344635
0.800873 0.212585 0.352905
0.823975 0.215668 0.361328
0.152344 0.124664 0.127075
0.167969 0.131439 0.136017
0.183929 0.137970 0.145569
0.202271 0.143311 0.154785
0.222931 0.147308 0.164978
0.245026 0.150665 0.174713
0.268555 0.153107 0.185364
0.294098 0.154388 0.196869
0.321014 0.154785 0.209229
0.342651 0.158905 0.216003
0.364319 0.162994 0.222992
0.386566 0.166901 0.229584
0.408783 0.170746 0.236389
0.431152 0.174438 0.243408
0.453613 0.178070 0.250488
0.476379 0.181580 0.257629
0.498962 0.185120 0.265015
0.521729 0.188538 0.272461
0.544556 0.191925 0.280029
0.567505 0.195312 0.287445
0.590332 0.198639 0.295258
0.613312 0.201935 0.302856
0.636261 0.205231 0.310669
0.659180 0.208466 0.318756
0.682190 0.211700 0.326599
0.705231 0.214905 0.334534
0.728210 0.218079 0.342651
0.751282 0.221283 0.350647
0.774353 0.224426 0.358795
0.797333 0.227600 0.366913
0.820435 0.230774 0.375336
0.843597 0.233887 0.383453
0.174072 0.142426 0.145325
0.188293 0.149933 0.154388
0.203461 0.156891 0.163574
0.220734 0.162781 0.173065
0.240479 0.167328 0.182892
0.261658 0.171051 0.193054
0.285339 0.173370 0.204041
0.309540 0.175354 0.215393
0.336487 0.175659 0.228149
0.364288 0.175415 0.241516
0.386292 0.179260 0.248749
0.408142 0.183350 0.255249
0.430176 0.187286 0.261932
0.452271 0.191162 0.268982
0.474548 0.194946 0.275970
0.497009 0.198669 0.282745
0.519562 0.202209 0.290161
0.542206 0.205750 0.297424
0.564911 0.209290 0.304535
0.587708 0.212708 0.311920
0.610504 0.216125 0.319458
0.633331 0.219482 0.327026
0.656189 0.222839 0.334656
0.679108 0.226196 0.342377
0.702087 0.229492 0.350067
0.725067 0.232697 0.358032
0.748047 0.235992 0.365845
0.770996 0.239197 0.373840
0.794006 0.242432 0.381836
0.817017 0.245605 0.389862
0.840057 0.248810 0.397919
0.863068 0.251953 0.406067
0.195099 0.160645 0.163574
0.209229 0.168091 0.173004
0.223846 0.175354 0.182220
0.240204 0.181641 0.191620
0.258911 0.186737 0.201233
0.278961 0.191101 0.211090
0.300842 0.194489 0.221252
0.324951 0.196533 0.232697
0.350922 0.197418 0.245148
0.377777 0.197723 0.258209
0.406921 0.196564 0.272949
0.430084 0.199615 0.281311
0.451904 0.203705 0.287872
0.473785 0.207733 0.294556
0.495789 0.211639 0.301392
0.518005 0.215424 0.308502
0.540466 0.219208 0.315277
0.562958 0.222839 0.322357
0.585510 0.226410 0.329559
0.608093 0.229980 0.336823
0.630859 0.233459 0.344147
0.653503 0.236938 0.351501
0.676392 0.240295 0.358978
0.699219 0.243713 0.366486
0.722107 0.247040 0.374084
0.744965 0.250397 0.381714
0.767883 0.253693 0.389526
0.790894 0.256989 0.397400
0.813843 0.260254 0.405151
0.836823 0.263458 0.413147
0.859833 0.266724 0.421051
0.882843 0.269928 0.428986
0.216248 0.178772 0.181671
0.229797 0.186462 0.191345
0.243866 0.194031 0.200317
0.259644 0.200684 0.209747
0.277283 0.206299 0.219452
0.296478 0.211151 0.228851
0.317627 0.214874 0.239166
0.339905 0.218018 0.249634
0.364563 0.219696 0.261383
0.391479 0.219910 0.274658
0.419586 0.219391 0.288849
0.448944 0.218048 0.304016
0.474030 0.219849 0.314026
0.495605 0.224060 0.320618
0.517426 0.228119 0.327118
0.539368 0.232086 0.334137
0.561615 0.235901 0.340759
0.583954 0.239655 0.347717
0.606323 0.243378 0.354767
0.628784 0.247070 0.361877
0.651367 0.250641 0.369080
0.674011 0.254181 0.376282
0.696777 0.257660 0.383606
0.719482 0.261108 0.390991
0.742279 0.264526 0.398560
0.765106 0.267914 0.406036
0.787964 0.271240 0.413666
0.810852 0.274597 0.421204
0.833740 0.277924 0.428955
0.856689 0.281189 0.436707
0.879639 0.284485 0.444611
0.902618 0.287750 0.452423
0.237213 0.196869 0.200195
0.250885 0.204559 0.209686
0.264038 0.212524 0.218964
0.279297 0.219543 0.228149
0.296234 0.225525 0.237732
0.314545 0.230835 0.247284
0.334686 0.235138 0.257050
0.355896 0.238922 0.267029
0.379608 0.241180 0.278290
0.404755 0.242554 0.290222
0.431763 0.242615 0.303986
0.460785 0.241486 0.318970
0.491791 0.239044 0.335419
0.517700 0.240204 0.346649
0.539246 0.244385 0.353210
0.561066 0.248474 0.359955
0.583069 0.252472 0.366486
0.605103 0.256409 0.373352
0.627319 0.260193 0.380432
0.649750 0.263916 0.387177
0.672180 0.267578 0.394257
0.694702 0.271210 0.401398
0.717255 0.274780 0.408539
0.739899 0.278351 0.415955
0.762604 0.281830 0.423218
0.785431 0.285278 0.430573
0.808167 0.288727 0.438080
0.830994 0.292114 0.445465
0.853851 0.295471 0.453217
0.876709 0.298828 0.460693
0.899628 0.302124 0.468445
0.922546 0.305420 0.476227
0.259125 0.214600 0.218658
0.271576 0.222900 0.227905
0.285217 0.230621 0.237457
0.299133 0.238251 0.246368
0.315460 0.244568 0.255920
0.333038 0.250305 0.265137
0.352722 0.254883 0.275055
0.373413 0.258942 0.285065
0.395569 0.262115 0.295532
0.418915 0.264526 0.306702
0.444275 0.265778 0.318817
0.471466 0.265808 0.332611
0.501892 0.263672 0.348846
0.533752 0.260651 0.366119
0.561493 0.260498 0.379242
0.582977 0.264740 0.385834
0.604828 0.268860 0.392548
0.626617 0.272888 0.399323
0.648743 0.276794 0.406097
0.670837 0.280640 0.412964
0.693146 0.284424 0.419891
0.715546 0.288147 0.426697
0.738007 0.291809 0.433929
0.760590 0.295410 0.440857
0.783173 0.298950 0.448120
0.805817 0.302490 0.455322
0.828522 0.306030 0.462585
0.851349 0.309479 0.470032
0.874084 0.312897 0.477478
0.896942 0.316315 0.484985
0.919708 0.319672 0.492615
0.942596 0.323029 0.500153
0.280121 0.232788 0.236786
0.292694 0.241028 0.246277
0.305603 0.249115 0.255615
0.319824 0.256561 0.265045
0.335632 0.263153 0.274414
0.352539 0.269196 0.283783
0.370819 0.274567 0.293060
0.390594 0.279053 0.303009
0.411835 0.282776 0.313171
0.434204 0.285858 0.323608
0.458496 0.287689 0.335297
0.484375 0.288666 0.347717
0.511963 0.288391 0.361877
0.542511 0.286255 0.378113
0.575012 0.282715 0.396271
0.605255 0.280823 0.411896
0.626740 0.285065 0.418488
0.648468 0.289215 0.425171
0.670319 0.293213 0.431854
0.692291 0.297241 0.438721
0.714447 0.301086 0.445496
0.736725 0.304901 0.452209
0.758972 0.308685 0.459320
0.781433 0.312347 0.466278
0.803955 0.316010 0.473328
0.826447 0.319611 0.480377
0.849121 0.323151 0.487640
0.871796 0.326691 0.494812
0.894440 0.330170 0.502258
0.917175 0.333618 0.509613
0.939972 0.337067 0.517029
0.962769 0.340485 0.524597
0.301422 0.250763 0.255310
0.313507 0.259308 0.264465
0.326050 0.267517 0.273956
0.339905 0.275146 0.283203
0.355255 0.282043 0.292572
0.371643 0.288391 0.301941
0.389557 0.293884 0.311523
0.408661 0.298798 0.320953
0.429138 0.302887 0.331055
0.450836 0.306335 0.341400
0.473755 0.309052 0.352264
0.497955 0.311005 0.363739
0.524200 0.311676 0.376587
0.552155 0.311218 0.390839
0.582306 0.309235 0.407013
0.616272 0.304779 0.426575
0.648987 0.301178 0.444641
0.670502 0.305389 0.451233
0.692108 0.309570 0.457886
0.713959 0.313599 0.464569
0.735901 0.317596 0.471313
0.757996 0.321503 0.477966
0.780182 0.325378 0.484802
0.802551 0.329163 0.491730
0.824829 0.332916 0.498779
0.847321 0.336548 0.505737
0.869812 0.340210 0.512756
0.892365 0.343811 0.519928
0.915039 0.347351 0.527161
0.937683 0.350861 0.534393
0.960358 0.354340 0.541809
0.983124 0.357819 0.549103
0.322662 0.268799 0.273529
0.334473 0.277466 0.282928
0.346863 0.285828 0.292297
0.360382 0.293579 0.301697
0.375275 0.300659 0.311066
0.391174 0.307251 0.320435
0.408569 0.313019 0.329773
0.426758 0.318451 0.339111
0.446777 0.322845 0.349243
0.467712 0.326752 0.359100
0.489746 0.329956 0.369598
0.512970 0.332520 0.380554
0.537872 0.334045 0.392487
0.564087 0.334686 0.405334
0.592438 0.333984 0.419830
0.623047 0.331726 0.436371
0.657776 0.326721 0.456787
0.692871 0.321442 0.477295
0.714264 0.325745 0.483887
0.735931 0.329926 0.490387
0.757660 0.333984 0.497223
0.779602 0.338013 0.503784
0.801575 0.341949 0.510559
0.823669 0.345825 0.517456
0.845947 0.349640 0.524323
0.868317 0.353363 0.531189
0.890656 0.357086 0.538208
0.913177 0.360779 0.545197
0.935699 0.364380 0.552429
0.958282 0.368011 0.559479
0.980865 0.371552 0.566772
1.000000 0.376862 0.574158
0.343842 0.286926 0.291809
0.355774 0.295471 0.301300
0.367981 0.303925 0.310730
0.381226 0.311859 0.320038
0.395752 0.319092 0.329376
0.411224 0.325958 0.338745
0.427765 0.332184 0.348083
0.445679 0.337708 0.357483
0.464783 0.342621 0.367126
0.485046 0.346893 0.376984
0.506348 0.350525 0.387177
0.528839 0.353485 0.397858
0.552490 0.355804 0.409058
0.577393 0.357300 0.420990
0.603821 0.357849 0.434021
0.632263 0.357056 0.448669
0.663239 0.354584 0.465515
0.698456 0.349213 0.486328
0.735992 0.342224 0.509247
0.758026 0.346069 0.516602
0.779694 0.350220 0.523071
0.801331 0.354370 0.529755
0.823212 0.358368 0.536560
0.845245 0.362366 0.543152
0.867340 0.366272 0.550049
0.889496 0.370148 0.556885
0.911804 0.373932 0.563721
0.934174 0.377625 0.570679
0.956573 0.381348 0.577728
0.979065 0.384979 0.584717
1.000000 0.389435 0.591858
1.000000 0.404449 0.599396
0.365021 0.305023 0.310028
0.376770 0.313660 0.319550
0.388763 0.322174 0.329132
0.401764 0.330261 0.338470
0.415955 0.337677 0.347809
0.431000 0.344666 0.357117
0.447144 0.351135 0.366486
0.464508 0.356934 0.375824
0.483063 0.362152 0.385345
0.502930 0.366638 0.395264
0.523560 0.370728 0.405090
0.545166 0.374207 0.415314
0.567902 0.377045 0.426025
0.591797 0.379181 0.437531
0.617188 0.380371 0.449738
0.643982 0.380676 0.463043
0.672272 0.379974 0.477478
0.703369 0.377472 0.494415
0.738922 0.371857 0.515625
0.777588 0.364105 0.539642
0.801880 0.366364 0.549164
0.823395 0.370575 0.555786
0.845062 0.374725 0.562439
0.866882 0.378784 0.569092
0.888824 0.382782 0.575806
0.910919 0.386688 0.582642
0.933075 0.390564 0.589386
0.955261 0.394348 0.596283
0.977631 0.398132 0.603241
1.000000 0.401886 0.610229
1.000000 0.417053 0.617035
1.000000 0.432098 0.624237
0.386536 0.322876 0.328461
0.397949 0.331757 0.337921
0.409790 0.340363 0.347351
0.422791 0.348389 0.356781
0.436188 0.356232 0.366180
0.451172 0.363281 0.375366
0.467133 0.369812 0.384827
0.484070 0.375885 0.394196
0.502075 0.381317 0.403656
0.520935 0.386383 0.413239
0.540863 0.390778 0.423035
0.562073 0.394531 0.433228
0.584076 0.397766 0.443604
0.607422 0.400299 0.454559
0.631622 0.402283 0.466125
0.656921 0.403503 0.478333
0.684052 0.403564 0.491913
0.712769 0.402618 0.506805
0.743713 0.400116 0.523651
0.778809 0.394836 0.544403
0.818756 0.386169 0.569794
0.845612 0.386719 0.581787
0.867218 0.390900 0.588348
0.888794 0.395081 0.595093
0.910583 0.399139 0.601715
0.932495 0.403168 0.608429
0.954468 0.407135 0.615234
0.976624 0.410980 0.621948
0.998810 0.414825 0.628784
1.000000 0.429474 0.635010
1.000000 0.444672 0.641663
1.000000 0.459747 0.648499
0.407562 0.341064 0.346649
0.419250 0.349731 0.356323
0.430756 0.358521 0.365784
0.443298 0.366760 0.375122
0.456696 0.374634 0.384552
0.471344 0.381836 0.393982
0.486755 0.388702 0.403198
0.503265 0.394958 0.412537
0.520813 0.400696 0.421967
0.539307 0.405884 0.431458
0.559052 0.410461 0.441193
0.579346 0.414673 0.451019
0.600708 0.418335 0.461273
0.623077 0.421387 0.471832
0.646637 0.423706 0.482971
0.671234 0.425415 0.494659
0.696899 0.426453 0.507233
0.723846 0.426666 0.520721
0.752808 0.425568 0.535645
0.784088 0.422852 0.552734
0.818939 0.417694 0.573303
0.859589 0.408569 0.599396
0.889374 0.406982 0.614441
0.910919 0.411224 0.621033
0.932495 0.415405 0.627655
0.954285 0.419525 0.634369
0.976166 0.423553 0.641144
0.998108 0.427521 0.647919
1.000000 0.441956 0.653412
1.000000 0.457245 0.659424
1.000000 0.472443 0.665680
1.000000 0.487579 0.672394
0.428955 0.359039 0.364960
0.440308 0.367889 0.374634
0.451691 0.376740 0.384003
0.464050 0.385071 0.393463
0.477417 0.392944 0.402954
0.491608 0.400391 0.412231
0.506622 0.407379 0.421539
0.522949 0.413757 0.430847
0.540100 0.419708 0.440216
0.558228 0.425171 0.449707
0.577148 0.430145 0.459320
0.596924 0.434631 0.469116
0.617737 0.438629 0.479065
0.639435 0.442047 0.489380
0.662231 0.444824 0.500153
0.686035 0.447052 0.511444
0.710754 0.448700 0.523163
0.736572 0.449646 0.535828
0.764069 0.449493 0.549591
0.792908 0.448425 0.564606
0.824310 0.445648 0.581848
0.859314 0.440399 0.602509
0.900360 0.430969 0.629028
0.933197 0.427307 0.647217
0.954590 0.431580 0.653778
0.976227 0.435760 0.660339
0.997925 0.439850 0.667053
1.000000 0.454315 0.672028
1.000000 0.469696 0.677307
1.000000 0.485107 0.683105
1.000000 0.500336 0.689270
1.000000 0.515533 0.695740
0.450226 0.377014 0.383453
0.461365 0.386047 0.392853
0.472778 0.394867 0.402435
0.485016 0.403290 0.411804
0.498138 0.411224 0.421295
0.512054 0.418823 0.430542
0.526978 0.425873 0.439972
0.542603 0.432648 0.449188
0.559509 0.438660 0.458618
0.577118 0.444336 0.468018
0.595459 0.449646 0.477570
0.614929 0.454346 0.487183
0.635376 0.458496 0.497131
0.656555 0.462311 0.507263
0.678345 0.465668 0.517578
0.701416 0.468323 0.528534
0.725311 0.470428 0.539825
0.750305 0.471893 0.551849
0.776489 0.472565 0.564697
0.803955 0.472443 0.578491
0.833130 0.471161 0.593750
0.864532 0.468445 0.610870
0.899200 0.463409 0.631195
0.940826 0.453613 0.658386
0.976959 0.447632 0.679810
0.998444 0.451874 0.686340
1.000000 0.466705 0.690765
1.000000 0.482239 0.695374
1.000000 0.497681 0.700531
1.000000 0.513031 0.706085
1.000000 0.528290 0.712128
1.000000 0.543518 0.718445
0.471466 0.395111 0.401733
0.482635 0.404022 0.411163
0.493988 0.412903 0.420776
0.506073 0.421387 0.430176
0.519043 0.429443 0.439606
0.532715 0.437195 0.448975
0.547180 0.444489 0.458313
0.562653 0.451294 0.467621
0.579041 0.457611 0.476959
0.596069 0.463562 0.486328
0.614349 0.468933 0.495819
0.633179 0.473938 0.505432
0.652924 0.478485 0.515106
0.673584 0.482544 0.525085
0.695190 0.486053 0.535339
0.717590 0.489075 0.545959
0.740814 0.491669 0.556946
0.765015 0.493591 0.568451
0.790253 0.494904 0.580658
0.816437 0.495575 0.593536
0.844147 0.495300 0.607483
0.873291 0.494019 0.622711
0.904541 0.491333 0.639801
0.939545 0.486115 0.660339
0.981171 0.476288 0.687408
1.000000 0.479095 0.709442
1.000000 0.494720 0.713470
1.000000 0.510254 0.718048
1.000000 0.525726 0.723083
1.000000 0.541138 0.728546
1.000000 0.556427 0.734375
1.000000 0.571655 0.740631
0.492615 0.413208 0.419952
0.503693 0.422180 0.429535
0.514984 0.431091 0.439056
0.526886 0.439636 0.448517
0.539703 0.447784 0.457947
0.553162 0.455597 0.467346
0.567352 0.463013 0.476654
0.582520 0.469971 0.485992
0.598572 0.476440 0.495300
0.615479 0.482544 0.504700
0.633179 0.488220 0.514130
0.651764 0.493378 0.523590
0.671082 0.498138 0.533234
0.691193 0.502502 0.543152
0.712280 0.506287 0.553223
0.734131 0.509644 0.563538
0.756561 0.512665 0.574127
0.780121 0.515045 0.585297
0.804565 0.516846 0.597015
0.829987 0.518036 0.609253
0.856506 0.518524 0.622284
0.884216 0.518188 0.636383
0.913422 0.516907 0.651672
0.944824 0.514099 0.668915
0.979523 0.509094 0.689209
1.000000 0.510529 0.713593
1.000000 0.522858 0.735474
1.000000 0.538391 0.739990
1.000000 0.553864 0.744904
1.000000 0.569336 0.750336
1.000000 0.584656 0.756073
1.000000 0.599915 0.762207
0.514038 0.431122 0.438263
0.524872 0.440247 0.447876
0.536255 0.449127 0.457397
0.548065 0.457733 0.466888
0.560333 0.466125 0.476349
0.573761 0.473938 0.485718
0.587952 0.481384 0.494965
0.602814 0.488495 0.504395
0.618591 0.495148 0.513733
0.634949 0.501465 0.523010
0.652252 0.507324 0.532349
0.670502 0.512695 0.541870
0.689362 0.517700 0.551483
0.709076 0.522308 0.561127
0.729645 0.526367 0.571167
0.750854 0.530121 0.581177
0.773041 0.533264 0.591827
0.795929 0.536011 0.602661
0.819550 0.538330 0.613739
0.844025 0.540100 0.625458
0.869629 0.541168 0.637878
0.896240 0.541595 0.651062
0.924194 0.541138 0.665253
0.953552 0.539734 0.680634
0.985291 0.536743 0.698120
1.000000 0.542145 0.717102
1.000000 0.554657 0.737946
1.000000 0.566742 0.761139
1.000000 0.582245 0.766083
1.000000 0.597626 0.771362
1.000000 0.612976 0.777039
1.000000 0.628235 0.783142
0.535217 0.449219 0.456635
0.546143 0.458252 0.466187
0.557098 0.467316 0.475708
0.568817 0.475983 0.485168
0.581268 0.484283 0.494659
0.594360 0.492279 0.503967
0.608337 0.499878 0.513458
0.622986 0.507111 0.522705
0.638275 0.513977 0.532013
0.654663 0.520294 0.541443
0.671631 0.526306 0.550812
0.689331 0.531982 0.560181
0.707825 0.537170 0.569672
0.727081 0.541992 0.579254
0.747223 0.546326 0.589081
0.768097 0.550232 0.599152
0.789673 0.553802 0.609344
0.811890 0.556946 0.619904
0.835144 0.559448 0.630981
0.858978 0.561615 0.642212
0.883789 0.563171 0.654144
0.909515 0.564178 0.666626
0.936188 0.564545 0.679840
0.964294 0.563995 0.694183
0.993652 0.562561 0.709625
1.000000 0.572754 0.726227
1.000000 0.585907 0.743652
1.000000 0.598694 0.762909
1.000000 0.610931 0.785095
1.000000 0.626099 0.791779
1.000000 0.641418 0.797455
1.000000 0.656708 0.803467
0.556488 0.467255 0.474945
0.567352 0.476349 0.484558
0.578369 0.485352 0.494049
0.589996 0.494080 0.503601
0.602173 0.502502 0.513031
0.615234 0.510498 0.522430
0.628845 0.518250 0.531708
0.643280 0.525604 0.541046
0.658478 0.532532 0.550385
0.674286 0.539154 0.559723
0.691101 0.545258 0.569092
0.708435 0.551117 0.578522
0.726685 0.556458 0.587921
0.745575 0.561462 0.597626
0.765198 0.566101 0.607239
0.785583 0.570251 0.617157
0.806641 0.574066 0.627197
0.828522 0.577423 0.637634
0.851166 0.580383 0.648254
0.874390 0.582886 0.659393
0.898407 0.584961 0.670685
0.923309 0.586426 0.682709
0.949371 0.587219 0.695404
0.976288 0.587433 0.708740
1.000000 0.589111 0.723206
1.000000 0.602692 0.738403
1.000000 0.616180 0.754120
1.000000 0.629517 0.770477
1.000000 0.642670 0.787903
1.000000 0.655212 0.808746
1.000000 0.670013 0.817230
1.000000 0.685303 0.823212
0.577789 0.485229 0.493225
0.588470 0.494415 0.502777
0.599457 0.503479 0.512390
0.611115 0.512177 0.521912
0.623077 0.520752 0.531342
0.635925 0.528839 0.540741
0.649506 0.536591 0.550171
0.663727 0.544037 0.559448
0.678528 0.551178 0.568817
0.694214 0.557831 0.578064
0.710571 0.564178 0.587402
0.727722 0.570099 0.596893
0.745514 0.575684 0.606293
0.764191 0.580841 0.615814
0.783417 0.585693 0.625397
0.803284 0.590179 0.635223
0.824066 0.594147 0.645172
0.845306 0.597839 0.655334
