projects/Assignment1/res/luts/Custom.cube
#Created by: Adobe Photoshop Export Color Lookup Plugin
TITLE "Custom"
#LUT size
LUT_3D_SIZE 5
#data domain
#LUT data points
DOMAIN_MIN 0.000000 0.000000 0.000000
DOMAIN_MAX 0.903226 0.903226 0.903226
0.000000 0.000000 0.000000
0.151093 0.030670 0.039398
0.314728 0.053070 0.088470
0.476929 0.074036 0.149567
0.638977 0.095001 0.211151
0.152344 0.124664 0.127075
0.294098 0.154388 0.196869
0.453613 0.178070 0.250488
0.613312 0.201935 0.302856
0.774353 0.224426 0.358795
0.301422 0.250763 0.255310
0.408661 0.298798 0.320953
0.582306 0.309235 0.407013
0.757996 0.321503 0.477966
0.915039 0.347351 0.527161
0.450226 0.377014 0.383453
0.542603 0.432648 0.449188
0.678345 0.465668 0.517578
0.864532 0.468445 0.610870
1.000000 0.497681 0.700531
0.598907 0.503357 0.511536
0.684052 0.562561 0.577789
0.801666 0.605286 0.643585
0.953186 0.629517 0.716187
1.000000 0.703094 0.809906
0.003906 0.003906 0.194183
0.129639 0.046417 0.238861
0.311432 0.064209 0.263519
0.480865 0.086487 0.298004
0.647430 0.109161 0.338074
0.113861 0.151550 0.313568
0.284302 0.169769 0.366943
0.453827 0.191833 0.402161
0.619110 0.215942 0.437805
0.783722 0.239563 0.477966
0.298401 0.270355 0.384277
0.410004 0.316681 0.447205
0.590332 0.324677 0.528351
0.767120 0.338257 0.589264
0.926544 0.364410 0.629944
0.457550 0.397156 0.481415
0.551239 0.452209 0.546326
0.689301 0.484497 0.612305
0.877869 0.486633 0.702423
1.000000 0.526306 0.772858
0.611267 0.524445 0.590546
0.696838 0.583466 0.656403
0.815552 0.625885 0.721069
0.968384 0.649780 0.791992
1.000000 0.735992 0.859222
0.007080 0.007080 0.394531
0.074677 0.074677 0.463135
0.278076 0.083801 0.475281
0.465790 0.099274 0.496429
0.639740 0.120087 0.525879
0.122375 0.151764 0.515015
0.207367 0.207367 0.600952
0.424194 0.210693 0.607300
0.605072 0.229065 0.631256
0.776886 0.250885 0.661530
0.208496 0.316315 0.608795
0.366241 0.342896 0.651581
0.574921 0.338196 0.723511
0.756134 0.352295 0.769653
0.921600 0.376892 0.802338
0.432404 0.419037 0.658356
0.531036 0.472107 0.720581
0.677917 0.500763 0.781921
0.874878 0.499359 0.868408
1.000000 0.544586 0.900543
0.601105 0.543549 0.741730
0.688263 0.601898 0.806549
0.810608 0.642944 0.868896
0.967468 0.665375 0.936676
1.000000 0.763702 0.936279
0.010193 0.010193 0.594879
0.077881 0.077881 0.663177
0.145416 0.145416 0.732513
0.426727 0.121124 0.711670
0.617706 0.135162 0.730988
0.137238 0.147156 0.725037
0.210754 0.210754 0.799133
0.304260 0.267151 0.857361
0.567719 0.250488 0.844116
0.755341 0.266052 0.864899
0.212372 0.318970 0.809723
0.289856 0.379822 0.887756
0.517548 0.365814 0.957916
0.723450 0.372620 0.975647
0.901672 0.392273 1.000000
0.308380 0.478790 0.902069
0.457184 0.510254 0.942932
0.638306 0.524323 0.989624
0.823883 0.542908 1.000000
0.948364 0.594391 1.000000
0.560455 0.569794 0.937378
0.652618 0.626160 1.000000
0.776764 0.677826 1.000000
0.895844 0.732117 1.000000
0.980103 0.804016 1.000000
0.013336 0.013336 0.795258
0.081055 0.081055 0.863373
0.148621 0.148621 0.932220
0.330109 0.167267 0.953217
0.575073 0.158478 0.948059
0.146332 0.146332 0.930359
0.214020 0.214020 0.998474
0.289978 0.289978 1.000000
0.473419 0.311523 1.000000
0.684448 0.319061 1.000000
0.227875 0.317749 1.000000
0.322479 0.384460 1.000000
0.439697 0.439697 1.000000
0.624573 0.460480 1.000000
0.779663 0.496429 1.000000
0.336578 0.488312 1.000000
0.431396 0.554871 1.000000
0.553406 0.607697 1.000000
0.758392 0.618256 1.000000
0.871857 0.675354 1.000000
0.488312 0.636932 1.000000
0.616547 0.686554 1.000000
0.747284 0.734894 1.000000
0.861115 0.791809 1.000000
0.947174 0.862885 1.000000
