projects/Assignment1/res/luts/Custom.cube
#Created by: Adobe Photoshop Export Color Lookup Plugin
TITLE "Custom"
#LUT size
LUT_3D_SIZE 8
#data domain
#LUT data points
DOMAIN_MIN 0.000000 0.000000 0.000000
DOMAIN_MAX 0.903226 0.903226 0.903226
0.000000 0.000000 0.000000
0.080750 0.020172 0.023315
0.174683 0.033936 0.045380
0.268280 0.046844 0.072784
0.361084 0.059082 0.106018
0.453735 0.071014 0.141144
0.546387 0.083008 0.176025
0.638977 0.095001 0.211151
0.084290 0.072571 0.073151
0.166077 0.090332 0.106567
0.255798 0.105408 0.132751
0.346893 0.119385 0.161316
0.438843 0.132385 0.192810
0.531006 0.145020 0.225616
0.623444 0.157410 0.258850
0.715912 0.169708 0.292603
0.174072 0.142426 0.145325
0.240479 0.167328 0.182892
0.336487 0.175659 0.228149
0.430176 0.187286 0.261932
0.519562 0.202209 0.290161
0.610504 0.216125 0.319458
0.702087 0.229492 0.350067
0.794006 0.242432 0.381836
0.259125 0.214600 0.218658
0.315460 0.244568 0.255920
0.395569 0.262115 0.295532
0.501892 0.263672 0.348846
0.604828 0.268860 0.392548
0.693146 0.284424 0.419891
0.783173 0.298950 0.448120
0.874084 0.312897 0.477478
0.343842 0.286926 0.291809
0.395752 0.319092 0.329376
0.464783 0.342621 0.367126
0.552490 0.355804 0.409058
0.663239 0.354584 0.465515
0.779694 0.350220 0.523071
0.867340 0.366272 0.550049
0.956573 0.381348 0.577728
0.428955 0.359039 0.364960
0.477417 0.392944 0.402954
0.540100 0.419708 0.440216
0.617737 0.438629 0.479065
0.710754 0.448700 0.523163
0.824310 0.445648 0.581848
0.954590 0.431580 0.653778
1.000000 0.469696 0.677307
0.514038 0.431122 0.438263
0.560333 0.466125 0.476349
0.618591 0.495148 0.513733
0.689362 0.517700 0.551483
0.773041 0.533264 0.591827
0.869629 0.541168 0.637878
0.985291 0.536743 0.698120
1.000000 0.582245 0.766083
0.598907 0.503357 0.511536
0.644104 0.538849 0.549683
0.698761 0.569733 0.587219
0.764618 0.594849 0.624542
0.841522 0.614197 0.663177
0.929321 0.627350 0.704926
1.000000 0.647858 0.754242
1.000000 0.703094 0.809906
0.002563 0.002563 0.108154
0.066284 0.030304 0.137604
0.170654 0.040314 0.151215
0.268005 0.052887 0.170197
0.363495 0.065857 0.192230
0.458191 0.078735 0.216492
0.552368 0.091553 0.242767
0.646240 0.104248 0.270844
0.069855 0.083557 0.182434
0.158081 0.098877 0.211639
0.253479 0.112396 0.230530
0.347748 0.126373 0.250549
0.442078 0.139923 0.272552
0.536102 0.153198 0.296906
0.629730 0.166290 0.323090
0.723236 0.179169 0.350800
0.168304 0.153381 0.231537
0.238312 0.176910 0.266388
0.337830 0.184174 0.307739
0.433167 0.195953 0.336365
0.524261 0.211029 0.359100
0.616486 0.225250 0.383270
0.709076 0.239014 0.408875
0.801941 0.252350 0.435791
0.260437 0.225586 0.284943
0.318115 0.255035 0.321564
0.399536 0.272217 0.359497
0.507935 0.273102 0.410797
0.611023 0.278900 0.450806
0.700287 0.294586 0.475067
0.791107 0.309265 0.500244
0.882629 0.323486 0.526550
0.348755 0.298462 0.345520
0.401001 0.330505 0.382996
0.470856 0.353760 0.419800
0.559479 0.366699 0.460480
0.671265 0.365234 0.515533
0.787842 0.361206 0.570923
0.876038 0.377319 0.596008
0.965851 0.392487 0.621674
0.435974 0.371063 0.410339
0.484863 0.404755 0.448059
0.547729 0.431519 0.484955
0.626129 0.450195 0.523102
0.719513 0.460236 0.566406
0.833740 0.457031 0.624115
0.964111 0.443207 0.694427
1.000000 0.487244 0.712708
0.522491 0.443512 0.477722
0.569092 0.478394 0.515594
0.627380 0.507416 0.552734
0.698669 0.529816 0.590118
0.782593 0.545349 0.629913
0.879669 0.553070 0.675446
0.995636 0.548645 0.735016
1.000000 0.601318 0.792542
0.608429 0.516052 0.546661
0.653687 0.551514 0.584747
0.708466 0.582336 0.622101
0.774536 0.607422 0.659241
0.851807 0.626587 0.697571
0.939911 0.639679 0.738892
1.000000 0.666107 0.785248
1.000000 0.722717 0.833771
0.004364 0.004364 0.222748
0.042969 0.042969 0.262054
0.150726 0.051819 0.272766
0.258453 0.060455 0.284576
0.358459 0.072174 0.301056
0.455719 0.084808 0.319946
0.551788 0.097656 0.340607
0.647156 0.110626 0.363007
0.073425 0.084747 0.295471
0.118713 0.118713 0.341583
0.236053 0.123444 0.347992
0.339172 0.134064 0.361786
0.437408 0.146545 0.378815
0.533905 0.159515 0.398010
0.629456 0.172638 0.418945
0.724457 0.185760 0.441284
0.127472 0.174988 0.355804
0.213989 0.191406 0.383850
0.326050 0.193634 0.418213
0.426025 0.204193 0.440826
0.520721 0.218231 0.459290
0.615112 0.232086 0.479156
0.709473 0.245819 0.500305
0.803619 0.259369 0.522736
0.243896 0.238739 0.388580
0.305817 0.266357 0.423462
0.392242 0.281464 0.458649
0.505066 0.280579 0.507599
0.608917 0.286865 0.542664
0.700165 0.302185 0.563599
0.792328 0.316864 0.585205
0.885040 0.331116 0.607941
0.341461 0.309479 0.435303
0.394989 0.341064 0.472015
0.467102 0.363403 0.507385
0.558136 0.375427 0.546295
0.672424 0.372986 0.599823
0.788940 0.369751 0.651276
0.878387 0.385712 0.673615
0.969177 0.400879 0.696625
0.433472 0.381775 0.488831
0.482971 0.415253 0.526184
0.546906 0.441559 0.562256
0.626709 0.459747 0.599213
0.721558 0.469299 0.641113
0.837555 0.465393 0.697693
0.967560 0.452362 0.764832
1.000000 0.500183 0.772217
0.523102 0.454376 0.546997
0.570007 0.489105 0.584656
0.628967 0.517914 0.621277
0.701080 0.540009 0.657928
0.785980 0.555237 0.696716
0.884033 0.562683 0.741180
1.000000 0.558533 0.799225
1.000000 0.617432 0.835205
0.611420 0.527069 0.608398
0.656555 0.562622 0.646271
0.711975 0.593170 0.683350
0.778503 0.618134 0.719971
0.856445 0.637115 0.757660
0.945068 0.650085 0.798065
1.000000 0.680817 0.835419
1.000000 0.740204 0.868927
0.006165 0.006165 0.337311
0.044800 0.044800 0.376373
0.083801 0.083221 0.415894
0.235840 0.073029 0.407715
0.345245 0.081024 0.418610
0.447144 0.091980 0.433624
0.545990 0.104095 0.450928
0.643372 0.116730 0.469788
0.078644 0.084381 0.412079
0.120697 0.120697 0.454498
0.179016 0.150787 0.485748
0.317627 0.146423 0.483276
0.424713 0.155334 0.495239
0.525513 0.166840 0.510681
0.623901 0.179138 0.528076
0.720825 0.191925 0.547089
0.130615 0.176208 0.469757
0.176453 0.209900 0.516083
0.292572 0.210510 0.548004
0.407318 0.215820 0.558441
0.508972 0.227112 0.572632
0.607452 0.239563 0.588989
0.704315 0.252594 0.607056
0.800323 0.265778 0.626282
0.181793 0.269043 0.524536
0.264984 0.287598 0.549988
0.369293 0.295105 0.577271
0.492401 0.289703 0.622253
0.598877 0.295807 0.651154
0.693420 0.309967 0.669128
0.787903 0.324005 0.687958
0.882416 0.337891 0.707794
0.317169 0.324799 0.548431
0.373657 0.355225 0.583374
0.451935 0.374847 0.616302
0.548004 0.384796 0.652679
0.667603 0.379852 0.705231
0.783539 0.377930 0.751160
0.875061 0.393311 0.771149
0.967255 0.408173 0.791687
0.419617 0.393890 0.590607
0.469910 0.427094 0.627289
0.536591 0.452301 0.662109
0.619232 0.469269 0.697540
0.717072 0.477631 0.737885
0.835388 0.472778 0.793121
0.965271 0.460510 0.856445
1.000000 0.509735 0.849884
0.514618 0.465454 0.639526
0.562103 0.499969 0.676941
0.622314 0.528259 0.712799
0.696045 0.549744 0.748291
0.782837 0.564270 0.785889
0.882660 0.571014 0.829163
1.000000 0.566467 0.885742
1.000000 0.631226 0.890228
0.606628 0.537750 0.693024
0.652252 0.573120 0.730713
0.708252 0.603455 0.767303
0.775970 0.627930 0.803253
0.855042 0.646545 0.839905
0.945007 0.659027 0.879425
1.000000 0.692444 0.901978
1.000000 0.756134 0.912567
0.007935 0.007935 0.451813
0.046631 0.046631 0.490814
0.085266 0.085266 0.530182
0.182404 0.098663 0.544983
0.320618 0.094452 0.542847
0.431305 0.101837 0.553101
0.534851 0.112213 0.567169
0.635101 0.123840 0.583252
0.083923 0.083923 0.529358
0.122589 0.122589 0.568298
0.161224 0.161224 0.607727
0.269287 0.169983 0.617889
0.400879 0.168579 0.618591
0.510040 0.176636 0.629456
0.612793 0.187286 0.643738
0.712738 0.199066 0.660034
0.137604 0.174835 0.587097
0.183228 0.208740 0.633057
0.236877 0.236877 0.687439
0.367615 0.235901 0.687866
0.486908 0.239807 0.693817
0.592560 0.249359 0.706177
0.693695 0.260773 0.721191
0.792480 0.273010 0.737854
0.182343 0.271454 0.639069
0.224823 0.307465 0.681793
0.303772 0.325653 0.721069
0.466461 0.302979 0.750793
0.579193 0.307922 0.769043
0.679810 0.319611 0.783478
0.778076 0.332245 0.799652
0.875122 0.345306 0.817078
0.237366 0.362549 0.692535
0.318115 0.382507 0.717285
0.417267 0.393311 0.740967
0.526398 0.397552 0.772125
0.655457 0.388092 0.823181
0.771515 0.387451 0.861694
0.866180 0.401672 0.879333
0.960724 0.415802 0.897736
0.387695 0.412048 0.709442
0.441711 0.443573 0.744659
0.514130 0.466370 0.777039
0.602417 0.480957 0.809692
0.705048 0.487305 0.847870
0.828735 0.479797 0.902618
0.957611 0.469086 0.960449
1.000000 0.516876 0.940674
0.495026 0.479248 0.748322
0.543671 0.513245 0.785034
0.606354 0.540497 0.819794
0.683441 0.560608 0.853790
0.773285 0.573792 0.889771
0.875824 0.579498 0.931580
0.997955 0.572388 0.988556
1.000000 0.643494 0.953430
0.593384 0.549774 0.793884
0.639709 0.584839 0.831360
0.696930 0.614685 0.867188
0.766449 0.638397 0.902130
0.847504 0.656189 0.937653
0.939453 0.667877 0.975952
1.000000 0.701691 0.981720
1.000000 0.771179 0.960693
0.009735 0.009735 0.566254
0.048431 0.048431 0.605194
0.087067 0.087067 0.644440
0.125671 0.125671 0.684052
0.274414 0.116974 0.676941
0.405457 0.115753 0.677917
0.516998 0.122833 0.687744
0.621918 0.132629 0.700989
0.085754 0.085754 0.643494
0.124420 0.124420 0.682373
0.163086 0.163086 0.721619
0.201660 0.201660 0.761230
0.356720 0.190308 0.751465
0.484589 0.190430 0.753754
0.595245 0.197876 0.763977
0.699615 0.207916 0.777405
0.146118 0.172211 0.706909
0.191650 0.206177 0.752686
0.238861 0.238861 0.800476
0.277466 0.277466 0.840118
0.447021 0.259857 0.824066
0.568512 0.262787 0.829132
0.676697 0.271271 0.840363
0.779755 0.281830 0.854340
0.188202 0.270996 0.754456
0.231110 0.306763 0.797607
0.282898 0.336273 0.849945
0.398132 0.333618 0.901703
0.545044 0.325775 0.895416
0.657440 0.332550 0.904297
0.761993 0.342590 0.917053
0.862885 0.354156 0.931976
0.233765 0.366882 0.808136
0.275330 0.403625 0.849884
0.321350 0.437134 0.896484
0.484253 0.418121 0.905853
0.633362 0.399414 0.951691
0.751526 0.399719 0.979492
0.851257 0.411896 0.994324
0.940613 0.431000 1.000000
0.294647 0.455322 0.860016
0.373016 0.476471 0.884674
0.468689 0.489258 0.907043
0.571991 0.497406 0.933472
0.684601 0.499359 0.968048
0.806213 0.497192 1.000000
0.895782 0.517212 1.000000
0.961548 0.549438 1.000000
0.457489 0.499481 0.871155
0.509308 0.532104 0.906738
0.577362 0.557098 0.938965
0.660614 0.574554 0.970245
0.754944 0.586639 1.000000
0.843811 0.607086 1.000000
0.922028 0.632935 1.000000
0.979004 0.669556 1.000000
0.568939 0.565094 0.907196
0.616425 0.599701 0.944153
0.676025 0.628510 0.978912
0.747589 0.653809 1.000000
0.821320 0.681946 1.000000
0.890289 0.712463 1.000000
0.948303 0.748627 1.000000
0.989899 0.793060 1.000000
0.011536 0.011536 0.680756
0.050262 0.050262 0.719635
0.088898 0.088898 0.758759
0.127502 0.127502 0.798187
0.166077 0.166077 0.838013
0.362671 0.136841 0.810516
0.490295 0.137115 0.812988
0.602570 0.143890 0.822479
0.087585 0.087585 0.757751
0.126251 0.126251 0.796600
0.164917 0.164917 0.835724
0.203522 0.203522 0.875153
0.242126 0.242126 0.915009
0.443054 0.211029 0.885620
0.568787 0.212067 0.888855
0.680481 0.219116 0.898621
0.156769 0.168060 0.829376
0.202118 0.202118 0.874908
0.240784 0.240784 0.914032
0.279419 0.279419 0.953491
0.343567 0.307007 0.982300
0.529205 0.282501 0.959534
0.651154 0.285156 0.964355
0.760956 0.292969 0.974884
0.195496 0.269379 0.872406
0.238800 0.304810 0.915924
0.292542 0.333038 0.970123
0.359192 0.359192 1.000000
0.475250 0.365845 1.000000
0.614960 0.360382 1.000000
0.722412 0.371399 1.000000
0.816254 0.389252 1.000000
0.239471 0.366669 0.922852
0.280975 0.403412 0.964539
0.330566 0.437195 1.000000
0.398132 0.468475 1.000000
0.583954 0.439606 1.000000
0.692749 0.449890 1.000000
0.780670 0.470795 1.000000
0.857880 0.497162 1.000000
0.285583 0.462036 0.977722
0.332703 0.499573 1.000000
0.391418 0.535370 1.000000
0.521057 0.535004 1.000000
0.643494 0.538361 1.000000
0.754486 0.547516 1.000000
0.836670 0.571350 1.000000
0.897644 0.605957 1.000000
0.362823 0.547668 1.000000
0.445251 0.571381 1.000000
0.536835 0.590393 1.000000
0.629364 0.609009 1.000000
0.718506 0.629242 1.000000
0.801697 0.652588 1.000000
0.876709 0.680023 1.000000
0.933960 0.716492 1.000000
0.533356 0.589996 1.000000
0.589722 0.626984 1.000000
0.654816 0.659485 1.000000
0.724884 0.689423 1.000000
0.794769 0.719513 1.000000
0.859894 0.751984 1.000000
0.916016 0.789062 1.000000
0.959961 0.832336 1.000000
0.013336 0.013336 0.795258
0.052063 0.052063 0.834106
0.090698 0.090698 0.873138
0.129333 0.129333 0.912445
0.167938 0.167938 0.952057
0.271088 0.178802 0.964325
0.449524 0.157349 0.944702
0.575073 0.158478 0.948059
0.089386 0.089386 0.872070
0.128082 0.128082 0.910889
0.166748 0.166748 0.949951
0.205383 0.205383 0.989288
0.247589 0.247589 1.000000
0.357574 0.257263 1.000000
0.524902 0.237762 1.000000
0.644684 0.242523 1.000000
0.165314 0.165314 0.949982
0.204010 0.204010 0.988831
0.246124 0.246124 1.000000
0.289642 0.289642 1.000000
0.333099 0.333099 1.000000
0.452881 0.337830 1.000000
0.592682 0.332336 1.000000
0.697876 0.344452 1.000000
0.204956 0.266113 0.993164
0.255890 0.304565 1.000000
0.319061 0.338104 1.000000
0.375153 0.375153 1.000000
0.418671 0.418671 1.000000
0.549194 0.417877 1.000000
0.662628 0.425812 1.000000
0.752380 0.445770 1.000000
0.255859 0.368073 1.000000
0.307465 0.407440 1.000000
0.364075 0.444244 1.000000
0.428162 0.477234 1.000000
0.504211 0.504211 1.000000
0.642181 0.499603 1.000000
0.732300 0.519440 1.000000
0.806702 0.547211 1.000000
0.319305 0.464813 1.000000
0.372009 0.503601 1.000000
0.427887 0.540863 1.000000
0.487122 0.576294 1.000000
0.601715 0.583679 1.000000
0.721771 0.588226 1.000000
0.799377 0.614349 1.000000
0.859253 0.649536 1.000000
0.391754 0.557007 1.000000
0.446381 0.594849 1.000000
0.502777 0.631775 1.000000
0.593781 0.651123 1.000000
0.694916 0.665314 1.000000
0.778320 0.688507 1.000000
0.852417 0.716431 1.000000
0.908295 0.753601 1.000000
0.488312 0.636932 1.000000
0.559235 0.666534 1.000000
0.635834 0.693176 1.000000
0.711151 0.720459 1.000000
0.782074 0.750031 1.000000
0.846313 0.782959 1.000000
0.901917 0.820312 1.000000
0.947174 0.862885 1.000000
